[GM HEADER]
Src=boxford
type=mill
machine=boxford
machine serial no=boxford
units=mm
Material=360,1.0
last operation=WRITE
bar shape=BOX
bar size=125,75,50
T1=2= T=10,P=1,D=3,C=21,SD=3,SH=3,FIT=YES,Z=0.000

[PROGRAM]
(nccode)
(T1 D=3 CR=0 - ZMIN=24.75 - flat end mill)
G90
G17
G21
(-Attention- Property Safe Retracts is set to Clearance Height.)
(Ensure the clearance height will clear the part and or fixtures.)
(Raise the Z-axis to a safe height before starting the program.)
(2D Pocket3)
M6 T1
S8000 M3
G17 G90
G92 X0 Y0
M8
G0 X74.574 Y37.028
Z65
G0 Z55
G1 Z52.8 F333.3
X74.568 Y37.029 Z52.739
X74.549 Y37.033 Z52.681
X74.52 Y37.038 Z52.627
X74.481 Y37.046 Z52.581
X74.393 Y37.065 Z52.523
X74.292 Y37.092 Z52.5
X74.236 Y37.11 Z52.498
X74.083 Y37.05 Z52.492
X73.925 Y37.003 Z52.486
X73.764 Y36.97 Z52.481
X73.601 Y36.949 Z52.475
X73.436 Y36.943 Z52.469
X72.822 Z52.448
X72.644 Y36.951 Z52.442
X72.468 Y36.974 Z52.435
X72.294 Y37.014 Z52.429
X72.125 Y37.068 Z52.423
X71.961 Y37.138 Z52.417
X71.797 Y37.068 Z52.41
X71.628 Y37.014 Z52.404
X71.454 Y36.974 Z52.398
X71.278 Y36.951 Z52.392
X71.1 Y36.943 Z52.386
X70.486 Z52.364
X70.328 Y36.949 Z52.359
X70.17 Y36.968 Z52.353
X70.015 Y36.999 Z52.348
X69.863 Y37.042 Z52.342
X69.714 Y37.098 Z52.337
X69.571 Y37.165 Z52.331
X69.441 Y37.109 Z52.326
X69.308 Y37.062 Z52.321
X69.173 Y37.025 Z52.316
X69.035 Y36.998 Z52.311
X68.351 Y36.887 Z52.287
X68.21 Y36.869 Z52.282
X68.068 Y36.861 Z52.277
X67.925 Y36.864 Z52.272
X67.784 Y36.876 Z52.267
X67.239 Y36.944 Z52.248
X67.077 Y36.971 Z52.242
X66.917 Y37.011 Z52.237
X66.762 Y37.064 Z52.231
X66.611 Y37.13 Z52.225
X66.124 Y37.367 Z52.206
X65.978 Y37.29 Z52.2
X65.598 Y37.111 Z52.186
X65.461 Y37.053 Z52.181
X65.32 Y37.005 Z52.175
X65.177 Y36.968 Z52.17
X65.03 Y36.941 Z52.165
X64.614 Y36.881 Z52.15
X64.469 Y36.866 Z52.145
X64.323 Y36.861 Z52.14
X64.177 Y36.867 Z52.135
X64.032 Y36.883 Z52.13
X63.889 Y36.91 Z52.125
X63.633 Y36.968 Z52.116
X63.475 Y36.949 Z52.11
X63.317 Y36.943 Z52.105
X62.747 Z52.085
X62.579 Y36.95 Z52.079
X62.412 Y36.971 Z52.073
X62.247 Y37.006 Z52.067
X62.086 Y37.055 Z52.061
X61.929 Y37.118 Z52.055
X61.778 Y37.193 Z52.049
X61.634 Y37.281 Z52.043
X61.499 Y37.38 Z52.038
X61.371 Y37.491 Z52.032
X61.254 Y37.612 Z52.026
X61.147 Y37.743 Z52.02
X61.04 Y37.642 Z52.015
X60.926 Y37.55 Z52.01
X60.805 Y37.467 Z52.005
X60.679 Y37.392 Z51.999
X60.249 Y37.16 Z51.982
X60.115 Y37.095 Z51.977
X59.977 Y37.039 Z51.972
X59.835 Y36.994 Z51.967
X59.69 Y36.959 Z51.962
X59.543 Y36.935 Z51.956
X59.055 Y36.876 Z51.939
X58.907 Y36.863 Z51.934
X58.759 Y36.861 Z51.929
X58.611 Y36.871 Z51.924
X58.464 Y36.891 Z51.918
X57.837 Y37.002 Z51.896
X57.762 Y36.985 Z51.894
X57.83 Y36.82 Z51.887
X57.977 Y36.837 Z51.882
X58.124 Y36.843 Z51.877
X58.272 Y36.838 Z51.872
X58.418 Y36.823 Z51.867
X58.563 Y36.796 Z51.862
X58.896 Y36.723 Z51.85
X59.025 Y36.744 Z51.845
X59.155 Y36.757 Z51.841
X59.285 Y36.761 Z51.836
X59.838 Z51.817
X59.995 Y36.755 Z51.811
X60.152 Y36.736 Z51.806
X60.307 Y36.706 Z51.8
X60.458 Y36.663 Z51.795
X60.606 Y36.608 Z51.789
X60.749 Y36.542 Z51.784
X60.91 Y36.608 Z51.778
X61.075 Y36.66 Z51.772
X61.245 Y36.697 Z51.765
X61.908 Y36.813 Z51.742
X62.071 Y36.835 Z51.736
X62.236 Y36.843 Z51.73
X62.401 Y36.838 Z51.725
X62.564 Y36.819 Z51.719
X63.172 Y36.723 Z51.697
X63.316 Y36.695 Z51.692
X63.457 Y36.656 Z51.687
X63.595 Y36.607 Z51.682
X63.729 Y36.548 Z51.677
X63.859 Y36.48 Z51.672
X64.391 Y36.173 Z51.65
X64.495 Y36.109 Z51.646
X64.595 Y36.039 Z51.642
X64.69 Y35.962 Z51.638
X64.837 Y36.042 Z51.632
X64.99 Y36.11 Z51.626
X65.148 Y36.164 Z51.62
X65.31 Y36.205 Z51.614
X65.728 Y36.293 Z51.599
X65.889 Y36.319 Z51.594
X66.052 Y36.333 Z51.588
X66.214 Z51.582
X66.377 Y36.321 Z51.577
X66.538 Y36.294 Z51.571
X66.959 Y36.208 Z51.556
X67.102 Y36.174 Z51.551
X67.243 Y36.128 Z51.546
X67.379 Y36.073 Z51.54
X67.512 Y36.007 Z51.535
X67.54 Y36.027 Z51.534
X68.015 Y36.36 Z51.514
X68.141 Y36.44 Z51.509
X68.272 Y36.512 Z51.503
X68.408 Y36.573 Z51.498
X68.548 Y36.624 Z51.493
X68.691 Y36.664 Z51.488
X68.837 Y36.694 Z51.483
X69.586 Y36.817 Z51.456
X69.735 Y36.835 Z51.451
X69.884 Y36.843 Z51.446
X70.034 Y36.839 Z51.44
X70.183 Y36.824 Z51.435
X70.714 Y36.751 Z51.416
X70.858 Y36.726 Z51.411
X71 Y36.69 Z51.406
X71.139 Y36.644 Z51.401
X71.274 Y36.588 Z51.396
X71.63 Y36.424 Z51.382
X71.776 Y36.508 Z51.376
X71.928 Y36.579 Z51.371
X72.086 Y36.638 Z51.365
X72.248 Y36.682 Z51.359
X72.413 Y36.713 Z51.353
X73.167 Y36.822 Z51.326
X73.315 Y36.838 Z51.321
X73.464 Y36.843 Z51.316
X73.613 Y36.837 Z51.311
X73.761 Y36.819 Z51.305
X74.583 Y36.691 Z51.276
X74.754 Y36.657 Z51.27
X74.922 Y36.608 Z51.264
X75.085 Y36.544 Z51.258
X75.242 Y36.466 Z51.252
X75.392 Y36.375 Z51.246
X75.542 Y36.46 Z51.24
X75.699 Y36.532 Z51.234
X75.862 Y36.591 Z51.228
X76.029 Y36.635 Z51.222
X76.337 Y36.705 Z51.211
X76.375 Y36.819 Z51.206
X76.419 Y36.931 Z51.202
X76.391 Y36.928 Z51.201
X75.827 Y36.871 Z51.181
X75.681 Y36.862 Z51.176
X75.535 Y36.863 Z51.171
X75.389 Y36.875 Z51.166
X75.245 Y36.897 Z51.161
X74.481 Y37.046 Z51.134
X74.357 Y37.074 Z51.129
X74.236 Y37.11 Z51.125
X74.083 Y37.05 Z51.119
X73.925 Y37.003 Z51.114
X73.764 Y36.97 Z51.108
X73.601 Y36.949 Z51.102
X73.436 Y36.943 Z51.096
X72.822 Z51.075
X72.644 Y36.951 Z51.069
X72.468 Y36.974 Z51.062
X72.294 Y37.014 Z51.056
X72.125 Y37.068 Z51.05
X71.961 Y37.138 Z51.044
X71.797 Y37.068 Z51.038
X71.628 Y37.014 Z51.031
X71.454 Y36.974 Z51.025
X71.278 Y36.951 Z51.019
X71.1 Y36.943 Z51.013
X70.486 Z50.991
X70.328 Y36.949 Z50.986
X70.17 Y36.968 Z50.98
X70.015 Y36.999 Z50.975
X69.863 Y37.042 Z50.969
X69.714 Y37.098 Z50.964
X69.571 Y37.165 Z50.958
X69.441 Y37.109 Z50.953
X69.308 Y37.062 Z50.948
X69.173 Y37.025 Z50.943
X69.035 Y36.998 Z50.938
X68.351 Y36.887 Z50.914
X68.21 Y36.869 Z50.909
X68.068 Y36.861 Z50.904
X67.925 Y36.864 Z50.899
X67.784 Y36.876 Z50.894
X67.239 Y36.944 Z50.875
X67.077 Y36.971 Z50.869
X66.917 Y37.011 Z50.864
X66.762 Y37.064 Z50.858
X66.611 Y37.13 Z50.852
X66.124 Y37.367 Z50.833
X65.978 Y37.29 Z50.828
X65.598 Y37.111 Z50.813
X65.461 Y37.053 Z50.808
X65.32 Y37.005 Z50.802
X65.177 Y36.968 Z50.797
X65.03 Y36.941 Z50.792
X64.614 Y36.881 Z50.777
X64.469 Y36.866 Z50.772
X64.323 Y36.861 Z50.767
X64.177 Y36.867 Z50.762
X64.032 Y36.883 Z50.757
X63.889 Y36.91 Z50.752
X63.633 Y36.968 Z50.743
X63.475 Y36.949 Z50.737
X63.317 Y36.943 Z50.732
X62.747 Z50.712
X62.579 Y36.95 Z50.706
X62.412 Y36.971 Z50.7
X62.247 Y37.006 Z50.694
X62.086 Y37.055 Z50.688
X61.929 Y37.118 Z50.682
X61.778 Y37.193 Z50.676
X61.634 Y37.281 Z50.671
X61.499 Y37.38 Z50.665
X61.371 Y37.491 Z50.659
X61.254 Y37.612 Z50.653
X61.147 Y37.743 Z50.647
X61.04 Y37.642 Z50.642
X60.926 Y37.55 Z50.637
X60.805 Y37.467 Z50.632
X60.679 Y37.392 Z50.626
X60.249 Y37.16 Z50.609
X60.115 Y37.095 Z50.604
X59.977 Y37.039 Z50.599
X59.835 Y36.994 Z50.594
X59.69 Y36.959 Z50.589
X59.543 Y36.935 Z50.583
X59.055 Y36.876 Z50.566
X58.907 Y36.863 Z50.561
X58.759 Y36.861 Z50.556
X58.611 Y36.871 Z50.551
X58.464 Y36.891 Z50.546
X57.837 Y37.002 Z50.523
X57.762 Y36.985 Z50.521
X57.83 Y36.82 Z50.514
X57.977 Y36.837 Z50.509
X58.124 Y36.843 Z50.504
X58.272 Y36.838 Z50.499
X58.418 Y36.823 Z50.494
X58.563 Y36.796 Z50.489
X58.896 Y36.723 Z50.477
X59.025 Y36.744 Z50.472
X59.155 Y36.757 Z50.468
X59.285 Y36.761 Z50.463
X59.838 Z50.444
X59.995 Y36.755 Z50.438
X60.152 Y36.736 Z50.433
X60.307 Y36.706 Z50.427
X60.458 Y36.663 Z50.422
X60.606 Y36.608 Z50.416
X60.749 Y36.542 Z50.411
X60.91 Y36.608 Z50.405
X61.075 Y36.66 Z50.399
X61.245 Y36.697 Z50.393
X61.908 Y36.813 Z50.369
X62.071 Y36.835 Z50.363
X62.236 Y36.843 Z50.358
X62.401 Y36.838 Z50.352
X62.564 Y36.819 Z50.346
X63.172 Y36.723 Z50.325
X63.316 Y36.695 Z50.319
X63.457 Y36.656 Z50.314
X63.595 Y36.607 Z50.309
X63.729 Y36.548 Z50.304
X63.859 Y36.48 Z50.299
X64.391 Y36.173 Z50.278
X64.495 Y36.109 Z50.273
X64.595 Y36.039 Z50.269
X64.69 Y35.962 Z50.265
X64.837 Y36.042 Z50.259
X64.99 Y36.11 Z50.253
X65.148 Y36.164 Z50.247
X65.31 Y36.205 Z50.241
X65.728 Y36.293 Z50.226
X65.889 Y36.319 Z50.221
X66.052 Y36.333 Z50.215
X66.214 Z50.209
X66.377 Y36.321 Z50.204
X66.538 Y36.294 Z50.198
X66.959 Y36.208 Z50.183
X67.102 Y36.174 Z50.178
X67.243 Y36.128 Z50.173
X67.379 Y36.073 Z50.167
X67.512 Y36.007 Z50.162
X67.54 Y36.027 Z50.161
X68.015 Y36.36 Z50.141
X68.141 Y36.44 Z50.136
X68.272 Y36.512 Z50.13
X68.408 Y36.573 Z50.125
X68.548 Y36.624 Z50.12
X68.691 Y36.664 Z50.115
X68.837 Y36.694 Z50.11
X69.586 Y36.817 Z50.083
X69.735 Y36.835 Z50.078
X69.884 Y36.843 Z50.073
X70.034 Y36.839 Z50.067
X70.183 Y36.824 Z50.062
X70.714 Y36.751 Z50.043
X70.858 Y36.726 Z50.038
X71 Y36.69 Z50.033
X71.139 Y36.644 Z50.028
X71.274 Y36.588 Z50.023
X71.63 Y36.424 Z50.009
X71.776 Y36.508 Z50.003
X71.928 Y36.579 Z49.998
X72.086 Y36.638 Z49.992
X72.248 Y36.682 Z49.986
X72.413 Y36.713 Z49.98
X73.167 Y36.822 Z49.953
X73.315 Y36.838 Z49.948
X73.464 Y36.843 Z49.943
X73.613 Y36.837 Z49.938
X73.761 Y36.819 Z49.933
X74.583 Y36.691 Z49.904
X74.754 Y36.657 Z49.897
X74.922 Y36.608 Z49.891
X75.085 Y36.544 Z49.885
X75.242 Y36.466 Z49.879
X75.392 Y36.375 Z49.873
X75.542 Y36.46 Z49.867
X75.699 Y36.532 Z49.861
X75.862 Y36.591 Z49.855
X76.029 Y36.635 Z49.849
X76.337 Y36.705 Z49.838
X76.375 Y36.819 Z49.834
X76.419 Y36.931 Z49.829
X76.391 Y36.928 Z49.828
X75.827 Y36.871 Z49.809
X75.681 Y36.862 Z49.803
X75.535 Y36.863 Z49.798
X75.389 Y36.875 Z49.793
X75.245 Y36.897 Z49.788
X74.481 Y37.046 Z49.761
X74.357 Y37.074 Z49.757
X74.236 Y37.11 Z49.752
X74.083 Y37.05 Z49.746
X73.925 Y37.003 Z49.741
X73.764 Y36.97 Z49.735
X73.601 Y36.949 Z49.729
X73.436 Y36.943 Z49.723
X72.822 Z49.702
X72.644 Y36.951 Z49.696
X72.468 Y36.974 Z49.69
X72.294 Y37.014 Z49.683
X72.125 Y37.068 Z49.677
X71.961 Y37.138 Z49.671
X71.797 Y37.068 Z49.665
X71.628 Y37.014 Z49.658
X71.454 Y36.974 Z49.652
X71.278 Y36.951 Z49.646
X71.1 Y36.943 Z49.64
X70.486 Z49.618
X70.328 Y36.949 Z49.613
X70.17 Y36.968 Z49.607
X70.015 Y36.999 Z49.602
X69.863 Y37.042 Z49.596
X69.714 Y37.098 Z49.591
X69.571 Y37.165 Z49.585
X69.441 Y37.109 Z49.58
X69.308 Y37.062 Z49.575
X69.173 Y37.025 Z49.57
X69.035 Y36.998 Z49.565
X68.351 Y36.887 Z49.541
X68.21 Y36.869 Z49.536
X68.068 Y36.861 Z49.531
X67.925 Y36.864 Z49.526
X67.784 Y36.876 Z49.521
X67.239 Y36.944 Z49.502
X67.077 Y36.971 Z49.496
X66.917 Y37.011 Z49.491
X66.762 Y37.064 Z49.485
X66.611 Y37.13 Z49.479
X66.124 Y37.367 Z49.46
X65.978 Y37.29 Z49.455
X65.598 Y37.111 Z49.44
X65.461 Y37.053 Z49.435
X65.32 Y37.005 Z49.43
X65.177 Y36.968 Z49.424
X65.03 Y36.941 Z49.419
X64.614 Y36.881 Z49.404
X64.469 Y36.866 Z49.399
X64.323 Y36.861 Z49.394
X64.177 Y36.867 Z49.389
X64.032 Y36.883 Z49.384
X63.889 Y36.91 Z49.379
X63.633 Y36.968 Z49.37
X63.475 Y36.949 Z49.364
X63.317 Y36.943 Z49.359
X62.747 Z49.339
X62.579 Y36.95 Z49.333
X62.412 Y36.971 Z49.327
X62.247 Y37.006 Z49.321
X62.086 Y37.055 Z49.315
X61.929 Y37.118 Z49.309
X61.778 Y37.193 Z49.304
X61.634 Y37.281 Z49.298
X61.499 Y37.38 Z49.292
X61.371 Y37.491 Z49.286
X61.254 Y37.612 Z49.28
X61.147 Y37.743 Z49.274
X61.04 Y37.642 Z49.269
X60.926 Y37.55 Z49.264
X60.805 Y37.467 Z49.259
X60.679 Y37.392 Z49.254
X60.249 Y37.16 Z49.237
X60.115 Y37.095 Z49.231
X59.977 Y37.039 Z49.226
X59.835 Y36.994 Z49.221
X59.69 Y36.959 Z49.216
X59.543 Y36.935 Z49.21
X59.055 Y36.876 Z49.193
X58.907 Y36.863 Z49.188
X58.759 Y36.861 Z49.183
X58.611 Y36.871 Z49.178
X58.464 Y36.891 Z49.173
X57.837 Y37.002 Z49.15
X57.762 Y36.985 Z49.148
X57.83 Y36.82 Z49.141
X57.977 Y36.837 Z49.136
X58.124 Y36.843 Z49.131
X58.272 Y36.838 Z49.126
X58.418 Y36.823 Z49.121
X58.563 Y36.796 Z49.116
X58.896 Y36.723 Z49.104
X59.025 Y36.744 Z49.099
X59.155 Y36.757 Z49.095
X59.285 Y36.761 Z49.09
X59.838 Z49.071
X59.995 Y36.755 Z49.065
X60.152 Y36.736 Z49.06
X60.307 Y36.706 Z49.054
X60.458 Y36.663 Z49.049
X60.606 Y36.608 Z49.043
X60.749 Y36.542 Z49.038
X60.91 Y36.608 Z49.032
X61.075 Y36.66 Z49.026
X61.245 Y36.697 Z49.02
X61.908 Y36.813 Z48.996
X62.071 Y36.835 Z48.99
X62.236 Y36.843 Z48.985
X62.401 Y36.838 Z48.979
X62.564 Y36.819 Z48.973
X63.172 Y36.723 Z48.952
X63.316 Y36.695 Z48.947
X63.457 Y36.656 Z48.941
X63.595 Y36.607 Z48.936
X63.729 Y36.548 Z48.931
X63.859 Y36.48 Z48.926
X64.391 Y36.173 Z48.905
X64.495 Y36.109 Z48.9
X64.595 Y36.039 Z48.896
X64.69 Y35.962 Z48.892
X64.837 Y36.042 Z48.886
X64.99 Y36.11 Z48.88
X65.148 Y36.164 Z48.874
X65.31 Y36.205 Z48.868
X65.728 Y36.293 Z48.854
X65.889 Y36.319 Z48.848
X66.052 Y36.333 Z48.842
X66.214 Z48.836
X66.377 Y36.321 Z48.831
X66.538 Y36.294 Z48.825
X66.959 Y36.208 Z48.81
X67.102 Y36.174 Z48.805
X67.243 Y36.128 Z48.8
X67.379 Y36.073 Z48.795
X67.512 Y36.007 Z48.789
X67.54 Y36.027 Z48.788
X68.015 Y36.36 Z48.768
X68.141 Y36.44 Z48.763
X68.272 Y36.512 Z48.758
X68.408 Y36.573 Z48.752
X68.548 Y36.624 Z48.747
X68.691 Y36.664 Z48.742
X68.837 Y36.694 Z48.737
X69.586 Y36.817 Z48.71
X69.735 Y36.835 Z48.705
X69.884 Y36.843 Z48.7
X70.034 Y36.839 Z48.695
X70.183 Y36.824 Z48.689
X70.714 Y36.751 Z48.671
X70.858 Y36.726 Z48.665
X71 Y36.69 Z48.66
X71.139 Y36.644 Z48.655
X71.274 Y36.588 Z48.65
X71.63 Y36.424 Z48.636
X71.776 Y36.508 Z48.631
X71.928 Y36.579 Z48.625
X72.086 Y36.638 Z48.619
X72.248 Y36.682 Z48.613
X72.413 Y36.713 Z48.607
X73.167 Y36.822 Z48.58
X73.315 Y36.838 Z48.575
X73.464 Y36.843 Z48.57
X73.613 Y36.837 Z48.565
X73.761 Y36.819 Z48.56
X74.583 Y36.691 Z48.531
X74.754 Y36.657 Z48.524
X74.922 Y36.608 Z48.518
X75.085 Y36.544 Z48.512
X75.242 Y36.466 Z48.506
X75.392 Y36.375 Z48.5
X75.542 Y36.46 Z48.494
X75.699 Y36.532 Z48.488
X75.862 Y36.591 Z48.482
X76.029 Y36.635 Z48.476
X76.337 Y36.705 Z48.465
X76.375 Y36.819 Z48.461
X76.419 Y36.931 Z48.456
X76.391 Y36.928 Z48.455
X75.827 Y36.871 Z48.436
X75.681 Y36.862 Z48.431
X75.535 Y36.863 Z48.425
X75.389 Y36.875 Z48.42
X75.245 Y36.897 Z48.415
X74.481 Y37.046 Z48.388
X74.357 Y37.074 Z48.384
X74.236 Y37.11 Z48.379
X74.083 Y37.05 Z48.373
X73.925 Y37.003 Z48.368
X73.764 Y36.97 Z48.362
X73.601 Y36.949 Z48.356
X73.436 Y36.943 Z48.35
X72.822 Z48.329
X72.644 Y36.951 Z48.323
X72.468 Y36.974 Z48.317
X72.294 Y37.014 Z48.31
X72.125 Y37.068 Z48.304
X71.961 Y37.138 Z48.298
X71.797 Y37.068 Z48.292
X71.628 Y37.014 Z48.286
X71.454 Y36.974 Z48.279
X71.278 Y36.951 Z48.273
X71.1 Y36.943 Z48.267
X70.486 Z48.245
X70.328 Y36.949 Z48.24
X70.17 Y36.968 Z48.234
X70.015 Y36.999 Z48.229
X69.863 Y37.042 Z48.223
X69.714 Y37.098 Z48.218
X69.571 Y37.165 Z48.212
X69.441 Y37.109 Z48.207
X69.308 Y37.062 Z48.202
X69.173 Y37.025 Z48.197
X69.035 Y36.998 Z48.193
X68.351 Y36.887 Z48.168
X68.21 Y36.869 Z48.163
X68.068 Y36.861 Z48.158
X67.925 Y36.864 Z48.153
X67.784 Y36.876 Z48.148
X67.239 Y36.944 Z48.129
X67.077 Y36.971 Z48.124
X66.917 Y37.011 Z48.118
X66.762 Y37.064 Z48.112
X66.611 Y37.13 Z48.106
X66.124 Y37.367 Z48.087
X65.978 Y37.29 Z48.082
X65.598 Y37.111 Z48.067
X65.461 Y37.053 Z48.062
X65.32 Y37.005 Z48.057
X65.177 Y36.968 Z48.051
X65.03 Y36.941 Z48.046
X64.614 Y36.881 Z48.032
X64.469 Y36.866 Z48.026
X64.323 Y36.861 Z48.021
X64.177 Y36.867 Z48.016
X64.032 Y36.883 Z48.011
X63.889 Y36.91 Z48.006
X63.633 Y36.968 Z47.997
X63.475 Y36.949 Z47.991
X63.317 Y36.943 Z47.986
X62.747 Z47.966
X62.579 Y36.95 Z47.96
X62.412 Y36.971 Z47.954
X62.247 Y37.006 Z47.948
X62.086 Y37.055 Z47.942
X61.929 Y37.118 Z47.936
X61.778 Y37.193 Z47.931
X61.634 Y37.281 Z47.925
X61.499 Y37.38 Z47.919
X61.371 Y37.491 Z47.913
X61.254 Y37.612 Z47.907
X61.147 Y37.743 Z47.901
X61.04 Y37.642 Z47.896
X60.926 Y37.55 Z47.891
X60.805 Y37.467 Z47.886
X60.679 Y37.392 Z47.881
X60.249 Y37.16 Z47.864
X60.115 Y37.095 Z47.858
X59.977 Y37.039 Z47.853
X59.835 Y36.994 Z47.848
X59.69 Y36.959 Z47.843
X59.543 Y36.935 Z47.838
X59.055 Y36.876 Z47.82
X58.907 Y36.863 Z47.815
X58.759 Y36.861 Z47.81
X58.611 Y36.871 Z47.805
X58.464 Y36.891 Z47.8
X57.837 Y37.002 Z47.777
X57.762 Y36.985 Z47.775
X57.83 Y36.82 Z47.769
X57.977 Y36.837 Z47.763
X58.124 Y36.843 Z47.758
X58.272 Y36.838 Z47.753
X58.418 Y36.823 Z47.748
X58.563 Y36.796 Z47.743
X58.896 Y36.723 Z47.731
X59.025 Y36.744 Z47.726
X59.155 Y36.757 Z47.722
X59.285 Y36.761 Z47.717
X59.838 Z47.698
X59.995 Y36.755 Z47.692
X60.152 Y36.736 Z47.687
X60.307 Y36.706 Z47.681
X60.458 Y36.663 Z47.676
X60.606 Y36.608 Z47.67
X60.749 Y36.542 Z47.665
X60.91 Y36.608 Z47.659
X61.075 Y36.66 Z47.653
X61.245 Y36.697 Z47.647
X61.908 Y36.813 Z47.623
X62.071 Y36.835 Z47.617
X62.236 Y36.843 Z47.612
X62.401 Y36.838 Z47.606
X62.564 Y36.819 Z47.6
X63.172 Y36.723 Z47.579
X63.316 Y36.695 Z47.574
X63.457 Y36.656 Z47.568
X63.595 Y36.607 Z47.563
X63.729 Y36.548 Z47.558
X63.859 Y36.48 Z47.553
X64.391 Y36.173 Z47.532
X64.495 Y36.109 Z47.527
X64.595 Y36.039 Z47.523
X64.69 Y35.962 Z47.519
X64.837 Y36.042 Z47.513
X64.99 Y36.11 Z47.507
X65.148 Y36.164 Z47.501
X65.31 Y36.205 Z47.496
X65.728 Y36.293 Z47.481
X65.889 Y36.319 Z47.475
X66.052 Y36.333 Z47.469
X66.214 Z47.464
X66.377 Y36.321 Z47.458
X66.538 Y36.294 Z47.452
X66.959 Y36.208 Z47.437
X67.102 Y36.174 Z47.432
X67.243 Y36.128 Z47.427
X67.379 Y36.073 Z47.422
X67.512 Y36.007 Z47.417
X67.54 Y36.027 Z47.415
X68.015 Y36.36 Z47.395
X68.141 Y36.44 Z47.39
X68.272 Y36.512 Z47.385
X68.408 Y36.573 Z47.379
X68.548 Y36.624 Z47.374
X68.691 Y36.664 Z47.369
X68.837 Y36.694 Z47.364
X69.586 Y36.817 Z47.337
X69.735 Y36.835 Z47.332
X69.884 Y36.843 Z47.327
X70.034 Y36.839 Z47.322
X70.183 Y36.824 Z47.316
X70.714 Y36.751 Z47.298
X70.858 Y36.726 Z47.293
X71 Y36.69 Z47.287
X71.139 Y36.644 Z47.282
X71.274 Y36.588 Z47.277
X71.63 Y36.424 Z47.264
X71.776 Y36.508 Z47.258
X71.928 Y36.579 Z47.252
X72.086 Y36.638 Z47.246
X72.248 Y36.682 Z47.24
X72.413 Y36.713 Z47.234
X73.167 Y36.822 Z47.208
X73.315 Y36.838 Z47.202
X73.464 Y36.843 Z47.197
X73.613 Y36.837 Z47.192
X73.761 Y36.819 Z47.187
X74.583 Y36.691 Z47.158
X74.754 Y36.657 Z47.152
X74.922 Y36.608 Z47.145
X75.085 Y36.544 Z47.139
X75.242 Y36.466 Z47.133
X75.392 Y36.375 Z47.127
X75.542 Y36.46 Z47.121
X75.699 Y36.532 Z47.115
X75.862 Y36.591 Z47.109
X76.029 Y36.635 Z47.103
X76.337 Y36.705 Z47.092
X76.375 Y36.819 Z47.088
X76.419 Y36.931 Z47.084
X76.391 Y36.928 Z47.083
X75.827 Y36.871 Z47.063
X75.681 Y36.862 Z47.058
X75.535 Y36.863 Z47.053
X75.389 Y36.875 Z47.047
X75.245 Y36.897 Z47.042
X74.481 Y37.046 Z47.015
X74.357 Y37.074 Z47.011
X74.236 Y37.11 Z47.006
X74.083 Y37.05 Z47.001
X73.925 Y37.003 Z46.995
X73.764 Y36.97 Z46.989
X73.601 Y36.949 Z46.983
X73.436 Y36.943 Z46.978
X72.822 Z46.956
X72.644 Y36.951 Z46.95
X72.468 Y36.974 Z46.944
X72.294 Y37.014 Z46.937
X72.125 Y37.068 Z46.931
X71.961 Y37.138 Z46.925
X71.797 Y37.068 Z46.919
X71.628 Y37.014 Z46.913
X71.454 Y36.974 Z46.906
X71.278 Y36.951 Z46.9
X71.1 Y36.943 Z46.894
X70.486 Z46.873
X70.328 Y36.949 Z46.867
X70.17 Y36.968 Z46.861
X70.015 Y36.999 Z46.856
X69.863 Y37.042 Z46.85
X69.714 Y37.098 Z46.845
X69.571 Y37.165 Z46.839
X69.441 Y37.109 Z46.834
X69.308 Y37.062 Z46.829
X69.173 Y37.025 Z46.825
X69.035 Y36.998 Z46.82
X68.351 Y36.887 Z46.795
X68.21 Y36.869 Z46.79
X68.068 Y36.861 Z46.786
X67.925 Y36.864 Z46.781
X67.784 Y36.876 Z46.776
X67.239 Y36.944 Z46.756
X67.077 Y36.971 Z46.751
X66.917 Y37.011 Z46.745
X66.762 Y37.064 Z46.739
X66.611 Y37.13 Z46.733
X66.124 Y37.367 Z46.715
X65.978 Y37.29 Z46.709
X65.598 Y37.111 Z46.694
X65.461 Y37.053 Z46.689
X65.32 Y37.005 Z46.684
X65.177 Y36.968 Z46.679
X65.03 Y36.941 Z46.673
X64.614 Y36.881 Z46.659
X64.469 Y36.866 Z46.654
X64.323 Y36.861 Z46.648
X64.177 Y36.867 Z46.643
X64.032 Y36.883 Z46.638
X63.889 Y36.91 Z46.633
X63.633 Y36.968 Z46.624
X63.475 Y36.949 Z46.618
X63.317 Y36.943 Z46.613
X62.747 Z46.593
X62.579 Y36.95 Z46.587
X62.412 Y36.971 Z46.581
X62.247 Y37.006 Z46.575
X62.086 Y37.055 Z46.569
X61.929 Y37.118 Z46.564
X61.778 Y37.193 Z46.558
X61.634 Y37.281 Z46.552
X61.499 Y37.38 Z46.546
X61.371 Y37.491 Z46.54
X61.254 Y37.612 Z46.534
X61.147 Y37.743 Z46.528
X61.04 Y37.642 Z46.523
X60.926 Y37.55 Z46.518
X60.805 Y37.467 Z46.513
X60.679 Y37.392 Z46.508
X60.249 Y37.16 Z46.491
X60.115 Y37.095 Z46.485
X59.977 Y37.039 Z46.48
X59.835 Y36.994 Z46.475
X59.69 Y36.959 Z46.47
X59.543 Y36.935 Z46.465
X59.055 Y36.876 Z46.447
X58.907 Y36.863 Z46.442
X58.759 Y36.861 Z46.437
X58.611 Y36.871 Z46.432
X58.464 Y36.891 Z46.427
X57.837 Y37.002 Z46.405
X57.762 Y36.985 Z46.402
X57.83 Y36.82 Z46.396
X57.977 Y36.837 Z46.391
X58.124 Y36.843 Z46.385
X58.272 Y36.838 Z46.38
X58.418 Y36.823 Z46.375
X58.563 Y36.796 Z46.37
X58.896 Y36.723 Z46.358
X59.025 Y36.744 Z46.353
X59.155 Y36.757 Z46.349
X59.285 Y36.761 Z46.344
X59.838 Z46.325
X59.995 Y36.755 Z46.32
X60.152 Y36.736 Z46.314
X60.307 Y36.706 Z46.309
X60.458 Y36.663 Z46.303
X60.606 Y36.608 Z46.298
X60.749 Y36.542 Z46.292
X60.91 Y36.608 Z46.286
X61.075 Y36.66 Z46.28
X61.245 Y36.697 Z46.274
X61.908 Y36.813 Z46.25
X62.071 Y36.835 Z46.245
X62.236 Y36.843 Z46.239
X62.401 Y36.838 Z46.233
X62.564 Y36.819 Z46.227
X63.172 Y36.723 Z46.206
X63.316 Y36.695 Z46.201
X63.457 Y36.656 Z46.196
X63.595 Y36.607 Z46.19
X63.729 Y36.548 Z46.185
X63.859 Y36.48 Z46.18
X64.391 Y36.173 Z46.159
X64.495 Y36.109 Z46.154
X64.595 Y36.039 Z46.15
X64.69 Y35.962 Z46.146
X64.837 Y36.042 Z46.14
X64.99 Y36.11 Z46.134
X65.148 Y36.164 Z46.128
X65.31 Y36.205 Z46.123
X65.728 Y36.293 Z46.108
X65.889 Y36.319 Z46.102
X66.052 Y36.333 Z46.096
X66.214 Z46.091
X66.377 Y36.321 Z46.085
X66.538 Y36.294 Z46.079
X66.959 Y36.208 Z46.064
X67.102 Y36.174 Z46.059
X67.243 Y36.128 Z46.054
X67.379 Y36.073 Z46.049
X67.512 Y36.007 Z46.044
X67.54 Y36.027 Z46.042
X68.015 Y36.36 Z46.022
X68.141 Y36.44 Z46.017
X68.272 Y36.512 Z46.012
X68.408 Y36.573 Z46.006
X68.548 Y36.624 Z46.001
X68.691 Y36.664 Z45.996
X68.837 Y36.694 Z45.991
X69.586 Y36.817 Z45.964
X69.735 Y36.835 Z45.959
X69.884 Y36.843 Z45.954
X70.034 Y36.839 Z45.949
X70.183 Y36.824 Z45.943
X70.714 Y36.751 Z45.925
X70.858 Y36.726 Z45.92
X71 Y36.69 Z45.915
X71.139 Y36.644 Z45.909
X71.274 Y36.588 Z45.904
X71.63 Y36.424 Z45.891
X71.776 Y36.508 Z45.885
X71.928 Y36.579 Z45.879
X72.086 Y36.638 Z45.873
X72.248 Y36.682 Z45.867
X72.413 Y36.713 Z45.861
X73.167 Y36.822 Z45.835
X73.315 Y36.838 Z45.829
X73.464 Y36.843 Z45.824
X73.613 Y36.837 Z45.819
X73.761 Y36.819 Z45.814
X74.583 Y36.691 Z45.785
X74.754 Y36.657 Z45.779
X74.922 Y36.608 Z45.773
X75.085 Y36.544 Z45.766
X75.242 Y36.466 Z45.76
X75.392 Y36.375 Z45.754
X75.542 Y36.46 Z45.748
X75.699 Y36.532 Z45.742
X75.862 Y36.591 Z45.736
X76.029 Y36.635 Z45.73
X76.337 Y36.705 Z45.719
X76.375 Y36.819 Z45.715
X76.419 Y36.931 Z45.711
X76.391 Y36.928 Z45.71
X75.827 Y36.871 Z45.69
X75.681 Y36.862 Z45.685
X75.535 Y36.863 Z45.68
X75.389 Y36.875 Z45.674
X75.245 Y36.897 Z45.669
X74.481 Y37.046 Z45.642
X74.357 Y37.074 Z45.638
X74.236 Y37.11 Z45.633
X74.083 Y37.05 Z45.628
X73.925 Y37.003 Z45.622
X73.764 Y36.97 Z45.616
X73.601 Y36.949 Z45.61
X73.436 Y36.943 Z45.605
X72.822 Z45.583
X72.644 Y36.951 Z45.577
X72.468 Y36.974 Z45.571
X72.294 Y37.014 Z45.565
X72.125 Y37.068 Z45.558
X71.961 Y37.138 Z45.552
X71.797 Y37.068 Z45.546
X71.628 Y37.014 Z45.54
X71.454 Y36.974 Z45.533
X71.278 Y36.951 Z45.527
X71.1 Y36.943 Z45.521
X70.486 Z45.5
X70.328 Y36.949 Z45.494
X70.17 Y36.968 Z45.489
X70.015 Y36.999 Z45.483
X69.863 Y37.042 Z45.477
X69.714 Y37.098 Z45.472
X69.571 Y37.165 Z45.466
X69.441 Y37.109 Z45.461
X69.308 Y37.062 Z45.457
X69.173 Y37.025 Z45.452
X69.035 Y36.998 Z45.447
X68.351 Y36.887 Z45.423
X68.21 Y36.869 Z45.418
X68.068 Y36.861 Z45.413
X67.925 Y36.864 Z45.408
X67.784 Y36.876 Z45.403
X67.239 Y36.944 Z45.383
X67.077 Y36.971 Z45.378
X66.917 Y37.011 Z45.372
X66.762 Y37.064 Z45.366
X66.611 Y37.13 Z45.361
X66.124 Y37.367 Z45.342
X65.978 Y37.29 Z45.336
X65.598 Y37.111 Z45.321
X65.461 Y37.053 Z45.316
X65.32 Y37.005 Z45.311
X65.177 Y36.968 Z45.306
X65.03 Y36.941 Z45.3
X64.614 Y36.881 Z45.286
X64.469 Y36.866 Z45.281
X64.323 Y36.861 Z45.276
X64.177 Y36.867 Z45.27
X64.032 Y36.883 Z45.265
X63.889 Y36.91 Z45.26
X63.633 Y36.968 Z45.251
X63.475 Y36.949 Z45.246
X63.317 Y36.943 Z45.24
X62.747 Z45.22
X62.579 Y36.95 Z45.214
X62.412 Y36.971 Z45.208
X62.247 Y37.006 Z45.202
X62.086 Y37.055 Z45.197
X61.929 Y37.118 Z45.191
X61.778 Y37.193 Z45.185
X61.634 Y37.281 Z45.179
X61.499 Y37.38 Z45.173
X61.371 Y37.491 Z45.167
X61.254 Y37.612 Z45.161
X61.147 Y37.743 Z45.155
X61.04 Y37.642 Z45.15
X60.926 Y37.55 Z45.145
X60.805 Y37.467 Z45.14
X60.679 Y37.392 Z45.135
X60.249 Y37.16 Z45.118
X60.115 Y37.095 Z45.113
X59.977 Y37.039 Z45.107
X59.835 Y36.994 Z45.102
X59.69 Y36.959 Z45.097
X59.543 Y36.935 Z45.092
X59.055 Y36.876 Z45.075
X58.907 Y36.863 Z45.069
X58.759 Y36.861 Z45.064
X58.611 Y36.871 Z45.059
X58.464 Y36.891 Z45.054
X57.837 Y37.002 Z45.032
X57.762 Y36.985 Z45.029
X57.83 Y36.82 Z45.023
X57.977 Y36.837 Z45.018
X58.124 Y36.843 Z45.012
X58.272 Y36.838 Z45.007
X58.418 Y36.823 Z45.002
X58.563 Y36.796 Z44.997
X58.896 Y36.723 Z44.985
X59.025 Y36.744 Z44.981
X59.155 Y36.757 Z44.976
X59.285 Y36.761 Z44.971
X59.838 Z44.952
X59.995 Y36.755 Z44.947
X60.152 Y36.736 Z44.941
X60.307 Y36.706 Z44.936
X60.458 Y36.663 Z44.93
X60.606 Y36.608 Z44.925
X60.749 Y36.542 Z44.919
X60.91 Y36.608 Z44.913
X61.075 Y36.66 Z44.907
X61.245 Y36.697 Z44.901
X61.908 Y36.813 Z44.877
X62.071 Y36.835 Z44.872
X62.236 Y36.843 Z44.866
X62.401 Y36.838 Z44.86
X62.564 Y36.819 Z44.854
X63.172 Y36.723 Z44.833
X63.316 Y36.695 Z44.828
X63.457 Y36.656 Z44.823
X63.595 Y36.607 Z44.818
X63.729 Y36.548 Z44.812
X63.859 Y36.48 Z44.807
X64.391 Y36.173 Z44.786
X64.495 Y36.109 Z44.782
X64.595 Y36.039 Z44.777
X64.69 Y35.962 Z44.773
X64.837 Y36.042 Z44.767
X64.99 Y36.11 Z44.761
X65.148 Y36.164 Z44.756
X65.31 Y36.205 Z44.75
X65.728 Y36.293 Z44.735
X65.889 Y36.319 Z44.729
X66.052 Y36.333 Z44.723
X66.214 Z44.718
X66.377 Y36.321 Z44.712
X66.538 Y36.294 Z44.706
X66.959 Y36.208 Z44.691
X67.102 Y36.174 Z44.686
X67.243 Y36.128 Z44.681
X67.379 Y36.073 Z44.676
X67.512 Y36.007 Z44.671
X67.54 Y36.027 Z44.669
X68.015 Y36.36 Z44.649
X68.141 Y36.44 Z44.644
X68.272 Y36.512 Z44.639
X68.408 Y36.573 Z44.634
X68.548 Y36.624 Z44.628
X68.691 Y36.664 Z44.623
X68.837 Y36.694 Z44.618
X69.586 Y36.817 Z44.591
X69.735 Y36.835 Z44.586
X69.884 Y36.843 Z44.581
X70.034 Y36.839 Z44.576
X70.183 Y36.824 Z44.571
X70.714 Y36.751 Z44.552
X70.858 Y36.726 Z44.547
X71 Y36.69 Z44.542
X71.139 Y36.644 Z44.536
X71.274 Y36.588 Z44.531
X71.63 Y36.424 Z44.518
X71.776 Y36.508 Z44.512
X71.928 Y36.579 Z44.506
X72.086 Y36.638 Z44.5
X72.248 Y36.682 Z44.494
X72.413 Y36.713 Z44.488
X73.167 Y36.822 Z44.462
X73.315 Y36.838 Z44.457
X73.464 Y36.843 Z44.451
X73.613 Y36.837 Z44.446
X73.761 Y36.819 Z44.441
X74.583 Y36.691 Z44.412
X74.754 Y36.657 Z44.406
X74.922 Y36.608 Z44.4
X75.085 Y36.544 Z44.394
X75.242 Y36.466 Z44.387
X75.392 Y36.375 Z44.381
X75.542 Y36.46 Z44.375
X75.699 Y36.532 Z44.369
X75.862 Y36.591 Z44.363
X76.029 Y36.635 Z44.357
X76.337 Y36.705 Z44.346
X76.375 Y36.819 Z44.342
X76.419 Y36.931 Z44.338
X76.391 Y36.928 Z44.337
X75.827 Y36.871 Z44.317
X75.681 Y36.862 Z44.312
X75.535 Y36.863 Z44.307
X75.389 Y36.875 Z44.302
X75.245 Y36.897 Z44.296
X74.481 Y37.046 Z44.269
X74.357 Y37.074 Z44.265
X74.236 Y37.11 Z44.26
X74.083 Y37.05 Z44.255
X73.925 Y37.003 Z44.249
X73.764 Y36.97 Z44.243
X73.601 Y36.949 Z44.237
X73.436 Y36.943 Z44.232
X72.822 Z44.21
X72.644 Y36.951 Z44.204
X72.468 Y36.974 Z44.198
X72.294 Y37.014 Z44.192
X72.125 Y37.068 Z44.185
X71.961 Y37.138 Z44.179
X71.797 Y37.068 Z44.173
X71.628 Y37.014 Z44.167
X71.454 Y36.974 Z44.161
X71.278 Y36.951 Z44.154
X71.1 Y36.943 Z44.148
X70.486 Z44.127
X70.328 Y36.949 Z44.121
X70.17 Y36.968 Z44.116
X70.015 Y36.999 Z44.11
X69.863 Y37.042 Z44.105
X69.714 Y37.098 Z44.099
X69.571 Y37.165 Z44.093
X69.441 Y37.109 Z44.089
X69.308 Y37.062 Z44.084
X69.173 Y37.025 Z44.079
X69.035 Y36.998 Z44.074
X68.351 Y36.887 Z44.05
X68.21 Y36.869 Z44.045
X68.068 Y36.861 Z44.04
X67.925 Y36.864 Z44.035
X67.784 Y36.876 Z44.03
X67.239 Y36.944 Z44.011
X67.077 Y36.971 Z44.005
X66.917 Y37.011 Z43.999
X66.762 Y37.064 Z43.993
X66.611 Y37.13 Z43.988
X66.124 Y37.367 Z43.969
X65.978 Y37.29 Z43.963
X65.598 Y37.111 Z43.948
X65.461 Y37.053 Z43.943
X65.32 Y37.005 Z43.938
X65.177 Y36.968 Z43.933
X65.03 Y36.941 Z43.927
X64.614 Y36.881 Z43.913
X64.469 Y36.866 Z43.908
X64.323 Y36.861 Z43.903
X64.177 Y36.867 Z43.898
X64.032 Y36.883 Z43.892
X63.889 Y36.91 Z43.887
X63.633 Y36.968 Z43.878
X63.475 Y36.949 Z43.873
X63.317 Y36.943 Z43.867
X62.747 Z43.847
X62.579 Y36.95 Z43.841
X62.412 Y36.971 Z43.835
X62.247 Y37.006 Z43.83
X62.086 Y37.055 Z43.824
X61.929 Y37.118 Z43.818
X61.778 Y37.193 Z43.812
X61.634 Y37.281 Z43.806
X61.499 Y37.38 Z43.8
X61.371 Y37.491 Z43.794
X61.254 Y37.612 Z43.788
X61.147 Y37.743 Z43.782
X61.04 Y37.642 Z43.777
X60.926 Y37.55 Z43.772
X60.805 Y37.467 Z43.767
X60.679 Y37.392 Z43.762
X60.249 Y37.16 Z43.745
X60.115 Y37.095 Z43.74
X59.977 Y37.039 Z43.734
X59.835 Y36.994 Z43.729
X59.69 Y36.959 Z43.724
X59.543 Y36.935 Z43.719
X59.055 Y36.876 Z43.702
X58.907 Y36.863 Z43.696
X58.759 Y36.861 Z43.691
X58.611 Y36.871 Z43.686
X58.464 Y36.891 Z43.681
X57.837 Y37.002 Z43.659
X57.762 Y36.985 Z43.656
X57.83 Y36.82 Z43.65
X57.977 Y36.837 Z43.645
X58.124 Y36.843 Z43.64
X58.272 Y36.838 Z43.634
X58.418 Y36.823 Z43.629
X58.563 Y36.796 Z43.624
X58.896 Y36.723 Z43.612
X59.025 Y36.744 Z43.608
X59.155 Y36.757 Z43.603
X59.285 Y36.761 Z43.598
X59.838 Z43.579
X59.995 Y36.755 Z43.574
X60.152 Y36.736 Z43.568
X60.307 Y36.706 Z43.563
X60.458 Y36.663 Z43.557
X60.606 Y36.608 Z43.552
X60.749 Y36.542 Z43.546
X60.91 Y36.608 Z43.54
X61.075 Y36.66 Z43.534
X61.245 Y36.697 Z43.528
X61.908 Y36.813 Z43.504
X62.071 Y36.835 Z43.499
X62.236 Y36.843 Z43.493
X62.401 Y36.838 Z43.487
X62.564 Y36.819 Z43.481
X63.172 Y36.723 Z43.46
X63.316 Y36.695 Z43.455
X63.457 Y36.656 Z43.45
X63.595 Y36.607 Z43.445
X63.729 Y36.548 Z43.439
X63.859 Y36.48 Z43.434
X64.391 Y36.173 Z43.413
X64.495 Y36.109 Z43.409
X64.595 Y36.039 Z43.404
X64.69 Y35.962 Z43.4
X64.837 Y36.042 Z43.394
X64.99 Y36.11 Z43.388
X65.148 Y36.164 Z43.383
X65.31 Y36.205 Z43.377
X65.728 Y36.293 Z43.362
X65.889 Y36.319 Z43.356
X66.052 Y36.333 Z43.35
X66.214 Z43.345
X66.377 Y36.321 Z43.339
X66.538 Y36.294 Z43.333
X66.959 Y36.208 Z43.318
X67.102 Y36.174 Z43.313
X67.243 Y36.128 Z43.308
X67.379 Y36.073 Z43.303
X67.512 Y36.007 Z43.298
X67.54 Y36.027 Z43.297
X68.015 Y36.36 Z43.276
X68.141 Y36.44 Z43.271
X68.272 Y36.512 Z43.266
X68.408 Y36.573 Z43.261
X68.548 Y36.624 Z43.255
X68.691 Y36.664 Z43.25
X68.837 Y36.694 Z43.245
X69.586 Y36.817 Z43.219
X69.735 Y36.835 Z43.213
X69.884 Y36.843 Z43.208
X70.034 Y36.839 Z43.203
X70.183 Y36.824 Z43.198
X70.714 Y36.751 Z43.179
X70.858 Y36.726 Z43.174
X71 Y36.69 Z43.169
X71.139 Y36.644 Z43.164
X71.274 Y36.588 Z43.158
X71.63 Y36.424 Z43.145
X71.776 Y36.508 Z43.139
X71.928 Y36.579 Z43.133
X72.086 Y36.638 Z43.127
X72.248 Y36.682 Z43.121
X72.413 Y36.713 Z43.115
X73.167 Y36.822 Z43.089
X73.315 Y36.838 Z43.084
X73.464 Y36.843 Z43.078
X73.613 Y36.837 Z43.073
X73.761 Y36.819 Z43.068
X74.583 Y36.691 Z43.039
X74.754 Y36.657 Z43.033
X74.922 Y36.608 Z43.027
X75.085 Y36.544 Z43.021
X75.242 Y36.466 Z43.014
X75.392 Y36.375 Z43.008
X75.542 Y36.46 Z43.002
X75.699 Y36.532 Z42.996
X75.862 Y36.591 Z42.99
X76.029 Y36.635 Z42.984
X76.337 Y36.705 Z42.973
X76.375 Y36.819 Z42.969
X76.419 Y36.931 Z42.965
X76.391 Y36.928 Z42.964
X75.827 Y36.871 Z42.944
X75.681 Y36.862 Z42.939
X75.535 Y36.863 Z42.934
X75.389 Y36.875 Z42.929
X75.245 Y36.897 Z42.924
X74.481 Y37.046 Z42.896
X74.357 Y37.074 Z42.892
X74.236 Y37.11 Z42.888
X74.083 Y37.05 Z42.882
X73.925 Y37.003 Z42.876
X73.764 Y36.97 Z42.87
X73.601 Y36.949 Z42.865
X73.436 Y36.943 Z42.859
X72.822 Z42.837
X72.644 Y36.951 Z42.831
X72.468 Y36.974 Z42.825
X72.294 Y37.014 Z42.819
X72.125 Y37.068 Z42.812
X71.961 Y37.138 Z42.806
X71.797 Y37.068 Z42.8
X71.628 Y37.014 Z42.794
X71.454 Y36.974 Z42.788
X71.278 Y36.951 Z42.781
X71.1 Y36.943 Z42.775
X70.486 Z42.754
X70.328 Y36.949 Z42.748
X70.17 Y36.968 Z42.743
X70.015 Y36.999 Z42.737
X69.863 Y37.042 Z42.732
X69.714 Y37.098 Z42.726
X69.571 Y37.165 Z42.721
X69.441 Y37.109 Z42.716
X69.308 Y37.062 Z42.711
X69.173 Y37.025 Z42.706
X69.035 Y36.998 Z42.701
X68.351 Y36.887 Z42.677
X68.21 Y36.869 Z42.672
X68.068 Y36.861 Z42.667
X67.925 Y36.864 Z42.662
X67.784 Y36.876 Z42.657
X67.239 Y36.944 Z42.638
X67.077 Y36.971 Z42.632
X66.917 Y37.011 Z42.626
X66.762 Y37.064 Z42.62
X66.611 Y37.13 Z42.615
X66.124 Y37.367 Z42.596
X65.978 Y37.29 Z42.59
X65.598 Y37.111 Z42.575
X65.461 Y37.053 Z42.57
X65.32 Y37.005 Z42.565
X65.177 Y36.968 Z42.56
X65.03 Y36.941 Z42.555
X64.614 Y36.881 Z42.54
X64.469 Y36.866 Z42.535
X64.323 Y36.861 Z42.53
X64.177 Y36.867 Z42.525
X64.032 Y36.883 Z42.519
X63.889 Y36.91 Z42.514
X63.633 Y36.968 Z42.505
X63.475 Y36.949 Z42.5
X63.317 Y36.943 Z42.494
X62.747 Z42.474
X62.579 Y36.95 Z42.468
X62.412 Y36.971 Z42.462
X62.247 Y37.006 Z42.457
X62.086 Y37.055 Z42.451
X61.929 Y37.118 Z42.445
X61.778 Y37.193 Z42.439
X61.634 Y37.281 Z42.433
X61.499 Y37.38 Z42.427
X61.371 Y37.491 Z42.421
X61.254 Y37.612 Z42.415
X61.147 Y37.743 Z42.41
X61.04 Y37.642 Z42.404
X60.926 Y37.55 Z42.399
X60.805 Y37.467 Z42.394
X60.679 Y37.392 Z42.389
X60.249 Y37.16 Z42.372
X60.115 Y37.095 Z42.367
X59.977 Y37.039 Z42.362
X59.835 Y36.994 Z42.356
X59.69 Y36.959 Z42.351
X59.543 Y36.935 Z42.346
X59.055 Y36.876 Z42.329
X58.907 Y36.863 Z42.324
X58.759 Y36.861 Z42.318
X58.611 Y36.871 Z42.313
X58.464 Y36.891 Z42.308
X57.837 Y37.002 Z42.286
X57.762 Y36.985 Z42.283
X57.83 Y36.82 Z42.277
X57.977 Y36.837 Z42.272
X58.124 Y36.843 Z42.267
X58.272 Y36.838 Z42.261
X58.418 Y36.823 Z42.256
X58.563 Y36.796 Z42.251
X58.896 Y36.723 Z42.239
X59.025 Y36.744 Z42.235
X59.155 Y36.757 Z42.23
X59.285 Y36.761 Z42.226
X59.838 Z42.206
X59.995 Y36.755 Z42.201
X60.152 Y36.736 Z42.195
X60.307 Y36.706 Z42.19
X60.458 Y36.663 Z42.184
X60.606 Y36.608 Z42.179
X60.749 Y36.542 Z42.173
X60.91 Y36.608 Z42.167
X61.075 Y36.66 Z42.161
X61.245 Y36.697 Z42.155
X61.908 Y36.813 Z42.132
X62.071 Y36.835 Z42.126
X62.236 Y36.843 Z42.12
X62.401 Y36.838 Z42.114
X62.564 Y36.819 Z42.109
X63.172 Y36.723 Z42.087
X63.316 Y36.695 Z42.082
X63.457 Y36.656 Z42.077
X63.595 Y36.607 Z42.072
X63.729 Y36.548 Z42.067
X63.859 Y36.48 Z42.061
X64.391 Y36.173 Z42.04
X64.495 Y36.109 Z42.036
X64.595 Y36.039 Z42.031
X64.69 Y35.962 Z42.027
X64.837 Y36.042 Z42.021
X64.99 Y36.11 Z42.016
X65.148 Y36.164 Z42.01
X65.31 Y36.205 Z42.004
X65.728 Y36.293 Z41.989
X65.889 Y36.319 Z41.983
X66.052 Y36.333 Z41.978
X66.214 Z41.972
X66.377 Y36.321 Z41.966
X66.538 Y36.294 Z41.96
X66.959 Y36.208 Z41.945
X67.102 Y36.174 Z41.94
X67.243 Y36.128 Z41.935
X67.379 Y36.073 Z41.93
X67.512 Y36.007 Z41.925
X67.54 Y36.027 Z41.924
X68.015 Y36.36 Z41.903
X68.141 Y36.44 Z41.898
X68.272 Y36.512 Z41.893
X68.408 Y36.573 Z41.888
X68.548 Y36.624 Z41.883
X68.691 Y36.664 Z41.877
X68.837 Y36.694 Z41.872
X69.586 Y36.817 Z41.846
X69.735 Y36.835 Z41.84
X69.884 Y36.843 Z41.835
X70.034 Y36.839 Z41.83
X70.183 Y36.824 Z41.825
X70.714 Y36.751 Z41.806
X70.858 Y36.726 Z41.801
X71 Y36.69 Z41.796
X71.139 Y36.644 Z41.791
X71.274 Y36.588 Z41.786
X71.63 Y36.424 Z41.772
X71.776 Y36.508 Z41.766
X71.928 Y36.579 Z41.76
X72.086 Y36.638 Z41.754
X72.248 Y36.682 Z41.748
X72.413 Y36.713 Z41.742
X73.167 Y36.822 Z41.716
X73.315 Y36.838 Z41.711
X73.464 Y36.843 Z41.705
X73.613 Y36.837 Z41.7
X73.761 Y36.819 Z41.695
X74.583 Y36.691 Z41.666
X74.754 Y36.657 Z41.66
X74.922 Y36.608 Z41.654
X75.085 Y36.544 Z41.648
X75.242 Y36.466 Z41.642
X75.392 Y36.375 Z41.635
X75.542 Y36.46 Z41.629
X75.699 Y36.532 Z41.623
X75.862 Y36.591 Z41.617
X76.029 Y36.635 Z41.611
X76.337 Y36.705 Z41.6
X76.375 Y36.819 Z41.596
X76.419 Y36.931 Z41.592
X76.391 Y36.928 Z41.591
X75.827 Y36.871 Z41.571
X75.681 Y36.862 Z41.566
X75.535 Y36.863 Z41.561
X75.389 Y36.875 Z41.556
X75.245 Y36.897 Z41.551
X74.481 Y37.046 Z41.523
X74.357 Y37.074 Z41.519
X74.236 Y37.11 Z41.515
X74.083 Y37.05 Z41.509
X73.925 Y37.003 Z41.503
X73.764 Y36.97 Z41.497
X73.601 Y36.949 Z41.492
X73.436 Y36.943 Z41.486
X72.822 Z41.464
X72.644 Y36.951 Z41.458
X72.468 Y36.974 Z41.452
X72.294 Y37.014 Z41.446
X72.125 Y37.068 Z41.44
X71.961 Y37.138 Z41.433
X71.797 Y37.068 Z41.427
X71.628 Y37.014 Z41.421
X71.454 Y36.974 Z41.415
X71.278 Y36.951 Z41.408
X71.1 Y36.943 Z41.402
X70.486 Z41.381
X70.328 Y36.949 Z41.375
X70.17 Y36.968 Z41.37
X70.015 Y36.999 Z41.364
X69.863 Y37.042 Z41.359
X69.714 Y37.098 Z41.353
X69.571 Y37.165 Z41.348
X69.441 Y37.109 Z41.343
X69.308 Y37.062 Z41.338
X69.173 Y37.025 Z41.333
X69.035 Y36.998 Z41.328
X68.351 Y36.887 Z41.304
X68.21 Y36.869 Z41.299
X68.068 Y36.861 Z41.294
X67.925 Y36.864 Z41.289
X67.784 Y36.876 Z41.284
X67.239 Y36.944 Z41.265
X67.077 Y36.971 Z41.259
X66.917 Y37.011 Z41.253
X66.762 Y37.064 Z41.247
X66.611 Y37.13 Z41.242
X66.124 Y37.367 Z41.223
X65.978 Y37.29 Z41.217
X65.598 Y37.111 Z41.202
X65.461 Y37.053 Z41.197
X65.32 Y37.005 Z41.192
X65.177 Y36.968 Z41.187
X65.03 Y36.941 Z41.182
X64.614 Y36.881 Z41.167
X64.469 Y36.866 Z41.162
X64.323 Y36.861 Z41.157
X64.177 Y36.867 Z41.152
X64.032 Y36.883 Z41.147
X63.889 Y36.91 Z41.141
X63.633 Y36.968 Z41.132
X63.475 Y36.949 Z41.127
X63.317 Y36.943 Z41.121
X62.747 Z41.101
X62.579 Y36.95 Z41.095
X62.412 Y36.971 Z41.09
X62.247 Y37.006 Z41.084
X62.086 Y37.055 Z41.078
X61.929 Y37.118 Z41.072
X61.778 Y37.193 Z41.066
X61.634 Y37.281 Z41.06
X61.499 Y37.38 Z41.054
X61.371 Y37.491 Z41.048
X61.254 Y37.612 Z41.042
X61.147 Y37.743 Z41.037
X61.04 Y37.642 Z41.031
X60.926 Y37.55 Z41.026
X60.805 Y37.467 Z41.021
X60.679 Y37.392 Z41.016
X60.249 Y37.16 Z40.999
X60.115 Y37.095 Z40.994
X59.977 Y37.039 Z40.989
X59.835 Y36.994 Z40.983
X59.69 Y36.959 Z40.978
X59.543 Y36.935 Z40.973
X59.055 Y36.876 Z40.956
X58.907 Y36.863 Z40.951
X58.759 Y36.861 Z40.945
X58.611 Y36.871 Z40.94
X58.464 Y36.891 Z40.935
X57.837 Y37.002 Z40.913
X57.762 Y36.985 Z40.91
X57.83 Y36.82 Z40.904
X57.977 Y36.837 Z40.899
X58.124 Y36.843 Z40.894
X58.272 Y36.838 Z40.889
X58.418 Y36.823 Z40.883
X58.563 Y36.796 Z40.878
X58.896 Y36.723 Z40.866
X59.025 Y36.744 Z40.862
X59.155 Y36.757 Z40.857
X59.285 Y36.761 Z40.853
X59.838 Z40.833
X59.995 Y36.755 Z40.828
X60.152 Y36.736 Z40.822
X60.307 Y36.706 Z40.817
X60.458 Y36.663 Z40.811
X60.606 Y36.608 Z40.806
X60.749 Y36.542 Z40.8
X60.91 Y36.608 Z40.794
X61.075 Y36.66 Z40.788
X61.245 Y36.697 Z40.782
X61.908 Y36.813 Z40.759
X62.071 Y36.835 Z40.753
X62.236 Y36.843 Z40.747
X62.401 Y36.838 Z40.741
X62.564 Y36.819 Z40.736
X63.172 Y36.723 Z40.714
X63.316 Y36.695 Z40.709
X63.457 Y36.656 Z40.704
X63.595 Y36.607 Z40.699
X63.729 Y36.548 Z40.694
X63.859 Y36.48 Z40.689
X64.391 Y36.173 Z40.667
X64.495 Y36.109 Z40.663
X64.595 Y36.039 Z40.659
X64.69 Y35.962 Z40.654
X64.837 Y36.042 Z40.648
X64.99 Y36.11 Z40.643
X65.148 Y36.164 Z40.637
X65.31 Y36.205 Z40.631
X65.728 Y36.293 Z40.616
X65.889 Y36.319 Z40.61
X66.052 Y36.333 Z40.605
X66.214 Z40.599
X66.377 Y36.321 Z40.593
X66.538 Y36.294 Z40.588
X66.959 Y36.208 Z40.573
X67.102 Y36.174 Z40.567
X67.243 Y36.128 Z40.562
X67.379 Y36.073 Z40.557
X67.512 Y36.007 Z40.552
X67.54 Y36.027 Z40.551
X68.015 Y36.36 Z40.53
X68.141 Y36.44 Z40.525
X68.272 Y36.512 Z40.52
X68.408 Y36.573 Z40.515
X68.548 Y36.624 Z40.51
X68.691 Y36.664 Z40.504
X68.837 Y36.694 Z40.499
X69.586 Y36.817 Z40.473
X69.735 Y36.835 Z40.467
X69.884 Y36.843 Z40.462
X70.034 Y36.839 Z40.457
X70.183 Y36.824 Z40.452
X70.714 Y36.751 Z40.433
X70.858 Y36.726 Z40.428
X71 Y36.69 Z40.423
X71.139 Y36.644 Z40.418
X71.274 Y36.588 Z40.413
X71.63 Y36.424 Z40.399
X71.776 Y36.508 Z40.393
X71.928 Y36.579 Z40.387
X72.086 Y36.638 Z40.381
X72.248 Y36.682 Z40.375
X72.413 Y36.713 Z40.37
X73.167 Y36.822 Z40.343
X73.315 Y36.838 Z40.338
X73.464 Y36.843 Z40.333
X73.613 Y36.837 Z40.327
X73.761 Y36.819 Z40.322
X74.583 Y36.691 Z40.293
X74.754 Y36.657 Z40.287
X74.922 Y36.608 Z40.281
X75.085 Y36.544 Z40.275
X75.242 Y36.466 Z40.269
X75.392 Y36.375 Z40.263
X75.542 Y36.46 Z40.256
X75.699 Y36.532 Z40.25
X75.862 Y36.591 Z40.244
X76.029 Y36.635 Z40.238
X76.337 Y36.705 Z40.227
X76.375 Y36.819 Z40.223
X76.419 Y36.931 Z40.219
X76.391 Y36.928 Z40.218
X75.827 Y36.871 Z40.198
X75.681 Y36.862 Z40.193
X75.535 Y36.863 Z40.188
X75.389 Y36.875 Z40.183
X75.245 Y36.897 Z40.178
X74.481 Y37.046 Z40.151
X74.357 Y37.074 Z40.146
X74.236 Y37.11 Z40.142
X74.083 Y37.05 Z40.136
X73.925 Y37.003 Z40.13
X73.764 Y36.97 Z40.124
X73.601 Y36.949 Z40.119
X73.436 Y36.943 Z40.113
X72.822 Z40.092
X72.644 Y36.951 Z40.085
X72.468 Y36.974 Z40.079
X72.294 Y37.014 Z40.073
X72.125 Y37.068 Z40.067
X71.961 Y37.138 Z40.06
X71.797 Y37.068 Z40.054
X71.628 Y37.014 Z40.048
X71.454 Y36.974 Z40.042
X71.278 Y36.951 Z40.036
X71.1 Y36.943 Z40.029
X70.486 Z40.008
X70.328 Y36.949 Z40.002
X70.17 Y36.968 Z39.997
X70.015 Y36.999 Z39.991
X69.863 Y37.042 Z39.986
X69.714 Y37.098 Z39.98
X69.571 Y37.165 Z39.975
X69.441 Y37.109 Z39.97
X69.308 Y37.062 Z39.965
X69.173 Y37.025 Z39.96
X69.035 Y36.998 Z39.955
X68.351 Y36.887 Z39.931
X68.21 Y36.869 Z39.926
X68.068 Y36.861 Z39.921
X67.925 Y36.864 Z39.916
X67.784 Y36.876 Z39.911
X67.239 Y36.944 Z39.892
X67.077 Y36.971 Z39.886
X66.917 Y37.011 Z39.88
X66.762 Y37.064 Z39.875
X66.611 Y37.13 Z39.869
X66.124 Y37.367 Z39.85
X65.978 Y37.29 Z39.844
X65.598 Y37.111 Z39.829
X65.461 Y37.053 Z39.824
X65.32 Y37.005 Z39.819
X65.177 Y36.968 Z39.814
X65.03 Y36.941 Z39.809
X64.614 Y36.881 Z39.794
X64.469 Y36.866 Z39.789
X64.323 Y36.861 Z39.784
X64.177 Y36.867 Z39.779
X64.032 Y36.883 Z39.774
X63.889 Y36.91 Z39.769
X63.633 Y36.968 Z39.759
X63.475 Y36.949 Z39.754
X63.317 Y36.943 Z39.748
X62.747 Z39.728
X62.579 Y36.95 Z39.723
X62.412 Y36.971 Z39.717
X62.247 Y37.006 Z39.711
X62.086 Y37.055 Z39.705
X61.929 Y37.118 Z39.699
X61.778 Y37.193 Z39.693
X61.634 Y37.281 Z39.687
X61.499 Y37.38 Z39.681
X61.371 Y37.491 Z39.675
X61.254 Y37.612 Z39.67
X61.147 Y37.743 Z39.664
X61.04 Y37.642 Z39.659
X60.926 Y37.55 Z39.653
X60.805 Y37.467 Z39.648
X60.679 Y37.392 Z39.643
X60.249 Y37.16 Z39.626
X60.115 Y37.095 Z39.621
X59.977 Y37.039 Z39.616
X59.835 Y36.994 Z39.61
X59.69 Y36.959 Z39.605
X59.543 Y36.935 Z39.6
X59.055 Y36.876 Z39.583
X58.907 Y36.863 Z39.578
X58.759 Y36.861 Z39.573
X58.611 Y36.871 Z39.567
X58.464 Y36.891 Z39.562
X57.837 Y37.002 Z39.54
X57.762 Y36.985 Z39.537
X57.83 Y36.82 Z39.531
X57.977 Y36.837 Z39.526
X58.124 Y36.843 Z39.521
X58.272 Y36.838 Z39.516
X58.418 Y36.823 Z39.51
X58.563 Y36.796 Z39.505
X58.896 Y36.723 Z39.493
X59.025 Y36.744 Z39.489
X59.155 Y36.757 Z39.484
X59.285 Y36.761 Z39.48
X59.838 Z39.46
X59.995 Y36.755 Z39.455
X60.152 Y36.736 Z39.449
X60.307 Y36.706 Z39.444
X60.458 Y36.663 Z39.438
X60.606 Y36.608 Z39.433
X60.749 Y36.542 Z39.427
X60.91 Y36.608 Z39.421
X61.075 Y36.66 Z39.415
X61.245 Y36.697 Z39.409
X61.908 Y36.813 Z39.386
X62.071 Y36.835 Z39.38
X62.236 Y36.843 Z39.374
X62.401 Y36.838 Z39.368
X62.564 Y36.819 Z39.363
X63.172 Y36.723 Z39.341
X63.316 Y36.695 Z39.336
X63.457 Y36.656 Z39.331
X63.595 Y36.607 Z39.326
X63.729 Y36.548 Z39.321
X63.859 Y36.48 Z39.316
X64.391 Y36.173 Z39.294
X64.495 Y36.109 Z39.29
X64.595 Y36.039 Z39.286
X64.69 Y35.962 Z39.281
X64.837 Y36.042 Z39.276
X64.99 Y36.11 Z39.27
X65.148 Y36.164 Z39.264
X65.31 Y36.205 Z39.258
X65.728 Y36.293 Z39.243
X65.889 Y36.319 Z39.237
X66.052 Y36.333 Z39.232
X66.214 Z39.226
X66.377 Y36.321 Z39.22
X66.538 Y36.294 Z39.215
X66.959 Y36.208 Z39.2
X67.102 Y36.174 Z39.194
X67.243 Y36.128 Z39.189
X67.379 Y36.073 Z39.184
X67.512 Y36.007 Z39.179
X67.54 Y36.027 Z39.178
X68.015 Y36.36 Z39.158
X68.141 Y36.44 Z39.152
X68.272 Y36.512 Z39.147
X68.408 Y36.573 Z39.142
X68.548 Y36.624 Z39.137
X68.691 Y36.664 Z39.131
X68.837 Y36.694 Z39.126
X69.586 Y36.817 Z39.1
X69.735 Y36.835 Z39.095
X69.884 Y36.843 Z39.089
X70.034 Y36.839 Z39.084
X70.183 Y36.824 Z39.079
X70.714 Y36.751 Z39.06
X70.858 Y36.726 Z39.055
X71 Y36.69 Z39.05
X71.139 Y36.644 Z39.045
X71.274 Y36.588 Z39.04
X71.63 Y36.424 Z39.026
X71.776 Y36.508 Z39.02
X71.928 Y36.579 Z39.014
X72.086 Y36.638 Z39.008
X72.248 Y36.682 Z39.003
X72.413 Y36.713 Z38.997
X73.167 Y36.822 Z38.97
X73.315 Y36.838 Z38.965
X73.464 Y36.843 Z38.96
X73.613 Y36.837 Z38.954
X73.761 Y36.819 Z38.949
X74.583 Y36.691 Z38.92
X74.754 Y36.657 Z38.914
X74.922 Y36.608 Z38.908
X75.085 Y36.544 Z38.902
X75.242 Y36.466 Z38.896
X75.392 Y36.375 Z38.89
X75.542 Y36.46 Z38.884
X75.699 Y36.532 Z38.878
X75.862 Y36.591 Z38.871
X76.029 Y36.635 Z38.865
X76.337 Y36.705 Z38.854
X76.375 Y36.819 Z38.85
X76.419 Y36.931 Z38.846
X76.391 Y36.928 Z38.845
X75.827 Y36.871 Z38.825
X75.681 Y36.862 Z38.82
X75.535 Y36.863 Z38.815
X75.389 Y36.875 Z38.81
X75.245 Y36.897 Z38.805
X74.481 Y37.046 Z38.778
X74.357 Y37.074 Z38.773
X74.236 Y37.11 Z38.769
X74.083 Y37.05 Z38.763
X73.925 Y37.003 Z38.757
X73.764 Y36.97 Z38.752
X73.601 Y36.949 Z38.746
X73.436 Y36.943 Z38.74
X72.822 Z38.719
X72.644 Y36.951 Z38.712
X72.468 Y36.974 Z38.706
X72.294 Y37.014 Z38.7
X72.125 Y37.068 Z38.694
X71.961 Y37.138 Z38.688
X71.797 Y37.068 Z38.681
X71.628 Y37.014 Z38.675
X71.454 Y36.974 Z38.669
X71.278 Y36.951 Z38.663
X71.1 Y36.943 Z38.656
X70.486 Z38.635
X70.328 Y36.949 Z38.629
X70.17 Y36.968 Z38.624
X70.015 Y36.999 Z38.618
X69.863 Y37.042 Z38.613
X69.714 Y37.098 Z38.607
X69.571 Y37.165 Z38.602
X69.441 Y37.109 Z38.597
X69.308 Y37.062 Z38.592
X69.173 Y37.025 Z38.587
X69.035 Y36.998 Z38.582
X68.351 Y36.887 Z38.558
X68.21 Y36.869 Z38.553
X68.068 Y36.861 Z38.548
X67.925 Y36.864 Z38.543
X67.784 Y36.876 Z38.538
X67.239 Y36.944 Z38.519
X67.077 Y36.971 Z38.513
X66.917 Y37.011 Z38.507
X66.762 Y37.064 Z38.502
X66.611 Y37.13 Z38.496
X66.124 Y37.367 Z38.477
X65.978 Y37.29 Z38.471
X65.598 Y37.111 Z38.457
X65.461 Y37.053 Z38.451
X65.32 Y37.005 Z38.446
X65.177 Y36.968 Z38.441
X65.03 Y36.941 Z38.436
X64.614 Y36.881 Z38.421
X64.469 Y36.866 Z38.416
X64.323 Y36.861 Z38.411
X64.177 Y36.867 Z38.406
X64.032 Y36.883 Z38.401
X63.889 Y36.91 Z38.396
X63.633 Y36.968 Z38.386
X63.475 Y36.949 Z38.381
X63.317 Y36.943 Z38.375
X62.747 Z38.356
X62.579 Y36.95 Z38.35
X62.412 Y36.971 Z38.344
X62.247 Y37.006 Z38.338
X62.086 Y37.055 Z38.332
X61.929 Y37.118 Z38.326
X61.778 Y37.193 Z38.32
X61.634 Y37.281 Z38.314
X61.499 Y37.38 Z38.308
X61.371 Y37.491 Z38.303
X61.254 Y37.612 Z38.297
X61.147 Y37.743 Z38.291
X61.04 Y37.642 Z38.286
X60.926 Y37.55 Z38.28
X60.805 Y37.467 Z38.275
X60.679 Y37.392 Z38.27
X60.249 Y37.16 Z38.253
X60.115 Y37.095 Z38.248
X59.977 Y37.039 Z38.243
X59.835 Y36.994 Z38.238
X59.69 Y36.959 Z38.232
X59.543 Y36.935 Z38.227
X59.055 Y36.876 Z38.21
X58.907 Y36.863 Z38.205
X58.759 Y36.861 Z38.2
X58.611 Y36.871 Z38.194
X58.464 Y36.891 Z38.189
X57.837 Y37.002 Z38.167
X57.762 Y36.985 Z38.164
X57.83 Y36.82 Z38.158
X57.977 Y36.837 Z38.153
X58.124 Y36.843 Z38.148
X58.272 Y36.838 Z38.143
X58.418 Y36.823 Z38.138
X58.563 Y36.796 Z38.132
X58.896 Y36.723 Z38.121
X59.025 Y36.744 Z38.116
X59.155 Y36.757 Z38.111
X59.285 Y36.761 Z38.107
X59.838 Z38.088
X59.995 Y36.755 Z38.082
X60.152 Y36.736 Z38.077
X60.307 Y36.706 Z38.071
X60.458 Y36.663 Z38.065
X60.606 Y36.608 Z38.06
X60.749 Y36.542 Z38.054
X60.91 Y36.608 Z38.048
X61.075 Y36.66 Z38.042
X61.245 Y36.697 Z38.036
X61.908 Y36.813 Z38.013
X62.071 Y36.835 Z38.007
X62.236 Y36.843 Z38.001
X62.401 Y36.838 Z37.996
X62.564 Y36.819 Z37.99
X63.172 Y36.723 Z37.968
X63.316 Y36.695 Z37.963
X63.457 Y36.656 Z37.958
X63.595 Y36.607 Z37.953
X63.729 Y36.548 Z37.948
X63.859 Y36.48 Z37.943
X64.391 Y36.173 Z37.921
X64.495 Y36.109 Z37.917
X64.595 Y36.039 Z37.913
X64.69 Y35.962 Z37.908
X64.837 Y36.042 Z37.903
X64.99 Y36.11 Z37.897
X65.148 Y36.164 Z37.891
X65.31 Y36.205 Z37.885
X65.728 Y36.293 Z37.87
X65.889 Y36.319 Z37.864
X66.052 Y36.333 Z37.859
X66.214 Z37.853
X66.377 Y36.321 Z37.847
X66.538 Y36.294 Z37.842
X66.959 Y36.208 Z37.827
X67.102 Y36.174 Z37.822
X67.243 Y36.128 Z37.816
X67.379 Y36.073 Z37.811
X67.512 Y36.007 Z37.806
X67.54 Y36.027 Z37.805
X68.015 Y36.36 Z37.785
X68.141 Y36.44 Z37.779
X68.272 Y36.512 Z37.774
X68.408 Y36.573 Z37.769
X68.548 Y36.624 Z37.764
X68.691 Y36.664 Z37.759
X68.837 Y36.694 Z37.753
X69.586 Y36.817 Z37.727
X69.735 Y36.835 Z37.722
X69.884 Y36.843 Z37.716
X70.034 Y36.839 Z37.711
X70.183 Y36.824 Z37.706
X70.714 Y36.751 Z37.687
X70.858 Y36.726 Z37.682
X71 Y36.69 Z37.677
X71.139 Y36.644 Z37.672
X71.274 Y36.588 Z37.667
X71.63 Y36.424 Z37.653
X71.776 Y36.508 Z37.647
X71.928 Y36.579 Z37.641
X72.086 Y36.638 Z37.635
X72.248 Y36.682 Z37.63
X72.413 Y36.713 Z37.624
X73.167 Y36.822 Z37.597
X73.315 Y36.838 Z37.592
X73.464 Y36.843 Z37.587
X73.613 Y36.837 Z37.582
X73.761 Y36.819 Z37.576
X74.583 Y36.691 Z37.547
X74.754 Y36.657 Z37.541
X74.922 Y36.608 Z37.535
X75.085 Y36.544 Z37.529
X75.242 Y36.466 Z37.523
X75.392 Y36.375 Z37.517
X75.542 Y36.46 Z37.511
X75.699 Y36.532 Z37.505
X75.862 Y36.591 Z37.499
X76.029 Y36.635 Z37.493
X76.337 Y36.705 Z37.481
X76.375 Y36.819 Z37.477
X76.419 Y36.931 Z37.473
X76.391 Y36.928 Z37.472
X75.827 Y36.871 Z37.452
X75.681 Y36.862 Z37.447
X75.535 Y36.863 Z37.442
X75.389 Y36.875 Z37.437
X75.245 Y36.897 Z37.432
X74.481 Y37.046 Z37.405
X74.357 Y37.074 Z37.4
X74.236 Y37.11 Z37.396
X74.083 Y37.05 Z37.39
X73.925 Y37.003 Z37.384
X73.764 Y36.97 Z37.379
X73.601 Y36.949 Z37.373
X73.436 Y36.943 Z37.367
X72.822 Z37.346
X72.644 Y36.951 Z37.339
X72.468 Y36.974 Z37.333
X72.294 Y37.014 Z37.327
X72.125 Y37.068 Z37.321
X71.961 Y37.138 Z37.315
X71.797 Y37.068 Z37.308
X71.628 Y37.014 Z37.302
X71.454 Y36.974 Z37.296
X71.278 Y36.951 Z37.29
X71.1 Y36.943 Z37.284
X70.486 Z37.262
X70.328 Y36.949 Z37.257
X70.17 Y36.968 Z37.251
X70.015 Y36.999 Z37.245
X69.863 Y37.042 Z37.24
X69.714 Y37.098 Z37.234
X69.571 Y37.165 Z37.229
X69.441 Y37.109 Z37.224
X69.308 Y37.062 Z37.219
X69.173 Y37.025 Z37.214
X69.035 Y36.998 Z37.209
X68.351 Y36.887 Z37.185
X68.21 Y36.869 Z37.18
X68.068 Y36.861 Z37.175
X67.925 Y36.864 Z37.17
X67.784 Y36.876 Z37.165
X67.239 Y36.944 Z37.146
X67.077 Y36.971 Z37.14
X66.917 Y37.011 Z37.134
X66.762 Y37.064 Z37.129
X66.611 Y37.13 Z37.123
X66.124 Y37.367 Z37.104
X65.978 Y37.29 Z37.098
X65.598 Y37.111 Z37.084
X65.461 Y37.053 Z37.078
X65.32 Y37.005 Z37.073
X65.177 Y36.968 Z37.068
X65.03 Y36.941 Z37.063
X64.614 Y36.881 Z37.048
X64.469 Y36.866 Z37.043
X64.323 Y36.861 Z37.038
X64.177 Y36.867 Z37.033
X64.032 Y36.883 Z37.028
X63.889 Y36.91 Z37.023
X63.633 Y36.968 Z37.014
X63.475 Y36.949 Z37.008
X63.317 Y36.943 Z37.002
X62.747 Z36.983
X62.579 Y36.95 Z36.977
X62.412 Y36.971 Z36.971
X62.247 Y37.006 Z36.965
X62.086 Y37.055 Z36.959
X61.929 Y37.118 Z36.953
X61.778 Y37.193 Z36.947
X61.634 Y37.281 Z36.941
X61.499 Y37.38 Z36.935
X61.371 Y37.491 Z36.93
X61.254 Y37.612 Z36.924
X61.147 Y37.743 Z36.918
X61.04 Y37.642 Z36.913
X60.926 Y37.55 Z36.908
X60.805 Y37.467 Z36.902
X60.679 Y37.392 Z36.897
X60.249 Y37.16 Z36.88
X60.115 Y37.095 Z36.875
X59.977 Y37.039 Z36.87
X59.835 Y36.994 Z36.865
X59.69 Y36.959 Z36.859
X59.543 Y36.935 Z36.854
X59.055 Y36.876 Z36.837
X58.907 Y36.863 Z36.832
X58.759 Y36.861 Z36.827
X58.611 Y36.871 Z36.822
X58.464 Y36.891 Z36.816
X57.837 Y37.002 Z36.794
X57.762 Y36.985 Z36.791
X57.83 Y36.82 Z36.785
X57.977 Y36.837 Z36.78
X58.124 Y36.843 Z36.775
X58.272 Y36.838 Z36.77
X58.418 Y36.823 Z36.765
X58.563 Y36.796 Z36.759
X58.896 Y36.723 Z36.748
X59.025 Y36.744 Z36.743
X59.155 Y36.757 Z36.738
X59.285 Y36.761 Z36.734
X59.838 Z36.715
X59.995 Y36.755 Z36.709
X60.152 Y36.736 Z36.704
X60.307 Y36.706 Z36.698
X60.458 Y36.663 Z36.693
X60.606 Y36.608 Z36.687
X60.749 Y36.542 Z36.682
X60.91 Y36.608 Z36.676
X61.075 Y36.66 Z36.669
X61.245 Y36.697 Z36.663
X61.908 Y36.813 Z36.64
X62.071 Y36.835 Z36.634
X62.236 Y36.843 Z36.628
X62.401 Y36.838 Z36.623
X62.564 Y36.819 Z36.617
X63.172 Y36.723 Z36.595
X63.316 Y36.695 Z36.59
X63.457 Y36.656 Z36.585
X63.595 Y36.607 Z36.58
X63.729 Y36.548 Z36.575
X63.859 Y36.48 Z36.57
X64.391 Y36.173 Z36.548
X64.495 Y36.109 Z36.544
X64.595 Y36.039 Z36.54
X64.69 Y35.962 Z36.536
X64.837 Y36.042 Z36.53
X64.99 Y36.11 Z36.524
X65.148 Y36.164 Z36.518
X65.31 Y36.205 Z36.512
X65.728 Y36.293 Z36.497
X65.889 Y36.319 Z36.492
X66.052 Y36.333 Z36.486
X66.214 Z36.48
X66.377 Y36.321 Z36.474
X66.538 Y36.294 Z36.469
X66.959 Y36.208 Z36.454
X67.102 Y36.174 Z36.449
X67.243 Y36.128 Z36.443
X67.379 Y36.073 Z36.438
X67.512 Y36.007 Z36.433
X67.54 Y36.027 Z36.432
X68.015 Y36.36 Z36.412
X68.141 Y36.44 Z36.406
X68.272 Y36.512 Z36.401
X68.408 Y36.573 Z36.396
X68.548 Y36.624 Z36.391
X68.691 Y36.664 Z36.386
X68.837 Y36.694 Z36.38
X69.586 Y36.817 Z36.354
X69.735 Y36.835 Z36.349
X69.884 Y36.843 Z36.343
X70.034 Y36.839 Z36.338
X70.183 Y36.824 Z36.333
X70.714 Y36.751 Z36.314
X70.858 Y36.726 Z36.309
X71 Y36.69 Z36.304
X71.139 Y36.644 Z36.299
X71.274 Y36.588 Z36.294
X71.63 Y36.424 Z36.28
X71.776 Y36.508 Z36.274
X71.928 Y36.579 Z36.268
X72.086 Y36.638 Z36.263
X72.248 Y36.682 Z36.257
X72.413 Y36.713 Z36.251
X73.167 Y36.822 Z36.224
X73.315 Y36.838 Z36.219
X73.464 Y36.843 Z36.214
X73.613 Y36.837 Z36.209
X73.761 Y36.819 Z36.203
X74.583 Y36.691 Z36.174
X74.754 Y36.657 Z36.168
X74.922 Y36.608 Z36.162
X75.085 Y36.544 Z36.156
X75.242 Y36.466 Z36.15
X75.392 Y36.375 Z36.144
X75.542 Y36.46 Z36.138
X75.699 Y36.532 Z36.132
X75.862 Y36.591 Z36.126
X76.029 Y36.635 Z36.12
X76.337 Y36.705 Z36.109
X76.375 Y36.819 Z36.104
X76.419 Y36.931 Z36.1
X76.391 Y36.928 Z36.099
X75.827 Y36.871 Z36.079
X75.681 Y36.862 Z36.074
X75.535 Y36.863 Z36.069
X75.389 Y36.875 Z36.064
X75.245 Y36.897 Z36.059
X74.481 Y37.046 Z36.032
X74.357 Y37.074 Z36.027
X74.236 Y37.11 Z36.023
X74.083 Y37.05 Z36.017
X73.925 Y37.003 Z36.011
X73.764 Y36.97 Z36.006
X73.601 Y36.949 Z36
X73.436 Y36.943 Z35.994
X72.822 Z35.973
X72.644 Y36.951 Z35.967
X72.468 Y36.974 Z35.96
X72.294 Y37.014 Z35.954
X72.125 Y37.068 Z35.948
X71.961 Y37.138 Z35.942
X71.797 Y37.068 Z35.935
X71.628 Y37.014 Z35.929
X71.454 Y36.974 Z35.923
X71.278 Y36.951 Z35.917
X71.1 Y36.943 Z35.911
X70.486 Z35.889
X70.328 Y36.949 Z35.884
X70.17 Y36.968 Z35.878
X70.015 Y36.999 Z35.873
X69.863 Y37.042 Z35.867
X69.714 Y37.098 Z35.861
X69.571 Y37.165 Z35.856
X69.441 Y37.109 Z35.851
X69.308 Y37.062 Z35.846
X69.173 Y37.025 Z35.841
X69.035 Y36.998 Z35.836
X68.351 Y36.887 Z35.812
X68.21 Y36.869 Z35.807
X68.068 Y36.861 Z35.802
X67.925 Y36.864 Z35.797
X67.784 Y36.876 Z35.792
X67.239 Y36.944 Z35.773
X67.077 Y36.971 Z35.767
X66.917 Y37.011 Z35.762
X66.762 Y37.064 Z35.756
X66.611 Y37.13 Z35.75
X66.124 Y37.367 Z35.731
X65.978 Y37.29 Z35.725
X65.598 Y37.111 Z35.711
X65.461 Y37.053 Z35.706
X65.32 Y37.005 Z35.7
X65.177 Y36.968 Z35.695
X65.03 Y36.941 Z35.69
X64.614 Y36.881 Z35.675
X64.469 Y36.866 Z35.67
X64.323 Y36.861 Z35.665
X64.177 Y36.867 Z35.66
X64.032 Y36.883 Z35.655
X63.889 Y36.91 Z35.65
X63.633 Y36.968 Z35.641
X63.475 Y36.949 Z35.635
X63.317 Y36.943 Z35.63
X62.747 Z35.61
X62.579 Y36.95 Z35.604
X62.412 Y36.971 Z35.598
X62.247 Y37.006 Z35.592
X62.086 Y37.055 Z35.586
X61.929 Y37.118 Z35.58
X61.778 Y37.193 Z35.574
X61.634 Y37.281 Z35.568
X61.499 Y37.38 Z35.563
X61.371 Y37.491 Z35.557
X61.254 Y37.612 Z35.551
X61.147 Y37.743 Z35.545
X61.04 Y37.642 Z35.54
X60.926 Y37.55 Z35.535
X60.805 Y37.467 Z35.53
X60.679 Y37.392 Z35.524
X60.249 Y37.16 Z35.507
X60.115 Y37.095 Z35.502
X59.977 Y37.039 Z35.497
X59.835 Y36.994 Z35.492
X59.69 Y36.959 Z35.487
X59.543 Y36.935 Z35.481
X59.055 Y36.876 Z35.464
X58.907 Y36.863 Z35.459
X58.759 Y36.861 Z35.454
X58.611 Y36.871 Z35.449
X58.464 Y36.891 Z35.443
X57.837 Y37.002 Z35.421
X57.762 Y36.985 Z35.419
X57.83 Y36.82 Z35.412
X57.977 Y36.837 Z35.407
X58.124 Y36.843 Z35.402
X58.272 Y36.838 Z35.397
X58.418 Y36.823 Z35.392
X58.563 Y36.796 Z35.387
X58.896 Y36.723 Z35.375
X59.025 Y36.744 Z35.37
X59.155 Y36.757 Z35.366
X59.285 Y36.761 Z35.361
X59.838 Z35.342
X59.995 Y36.755 Z35.336
X60.152 Y36.736 Z35.331
X60.307 Y36.706 Z35.325
X60.458 Y36.663 Z35.32
X60.606 Y36.608 Z35.314
X60.749 Y36.542 Z35.309
X60.91 Y36.608 Z35.303
X61.075 Y36.66 Z35.297
X61.245 Y36.697 Z35.29
X61.908 Y36.813 Z35.267
X62.071 Y36.835 Z35.261
X62.236 Y36.843 Z35.255
X62.401 Y36.838 Z35.25
X62.564 Y36.819 Z35.244
X63.172 Y36.723 Z35.222
X63.316 Y36.695 Z35.217
X63.457 Y36.656 Z35.212
X63.595 Y36.607 Z35.207
X63.729 Y36.548 Z35.202
X63.859 Y36.48 Z35.197
X64.391 Y36.173 Z35.175
X64.495 Y36.109 Z35.171
X64.595 Y36.039 Z35.167
X64.69 Y35.962 Z35.163
X64.837 Y36.042 Z35.157
X64.99 Y36.11 Z35.151
X65.148 Y36.164 Z35.145
X65.31 Y36.205 Z35.139
X65.728 Y36.293 Z35.124
X65.889 Y36.319 Z35.119
X66.052 Y36.333 Z35.113
X66.214 Z35.107
X66.377 Y36.321 Z35.102
X66.538 Y36.294 Z35.096
X66.959 Y36.208 Z35.081
X67.102 Y36.174 Z35.076
X67.243 Y36.128 Z35.071
X67.379 Y36.073 Z35.065
X67.512 Y36.007 Z35.06
X67.54 Y36.027 Z35.059
X68.015 Y36.36 Z35.039
X68.141 Y36.44 Z35.034
X68.272 Y36.512 Z35.028
X68.408 Y36.573 Z35.023
X68.548 Y36.624 Z35.018
X68.691 Y36.664 Z35.013
X68.837 Y36.694 Z35.008
X69.586 Y36.817 Z34.981
X69.735 Y36.835 Z34.976
X69.884 Y36.843 Z34.971
X70.034 Y36.839 Z34.965
X70.183 Y36.824 Z34.96
X70.714 Y36.751 Z34.941
X70.858 Y36.726 Z34.936
X71 Y36.69 Z34.931
X71.139 Y36.644 Z34.926
X71.274 Y36.588 Z34.921
X71.63 Y36.424 Z34.907
X71.776 Y36.508 Z34.901
X71.928 Y36.579 Z34.896
X72.086 Y36.638 Z34.89
X72.248 Y36.682 Z34.884
X72.413 Y36.713 Z34.878
X73.167 Y36.822 Z34.851
X73.315 Y36.838 Z34.846
X73.464 Y36.843 Z34.841
X73.613 Y36.837 Z34.836
X73.761 Y36.819 Z34.83
X74.583 Y36.691 Z34.801
X74.754 Y36.657 Z34.795
X74.922 Y36.608 Z34.789
X75.085 Y36.544 Z34.783
X75.242 Y36.466 Z34.777
X75.392 Y36.375 Z34.771
X75.542 Y36.46 Z34.765
X75.699 Y36.532 Z34.759
X75.862 Y36.591 Z34.753
X76.029 Y36.635 Z34.747
X76.337 Y36.705 Z34.736
X76.375 Y36.819 Z34.731
X76.419 Y36.931 Z34.727
X76.391 Y36.928 Z34.726
X75.827 Y36.871 Z34.706
X75.681 Y36.862 Z34.701
X75.535 Y36.863 Z34.696
X75.389 Y36.875 Z34.691
X75.245 Y36.897 Z34.686
X74.481 Y37.046 Z34.659
X74.357 Y37.074 Z34.654
X74.236 Y37.11 Z34.65
X74.083 Y37.05 Z34.644
X73.925 Y37.003 Z34.639
X73.764 Y36.97 Z34.633
X73.601 Y36.949 Z34.627
X73.436 Y36.943 Z34.621
X72.822 Z34.6
X72.644 Y36.951 Z34.594
X72.468 Y36.974 Z34.587
X72.294 Y37.014 Z34.581
X72.125 Y37.068 Z34.575
X71.961 Y37.138 Z34.569
X71.797 Y37.068 Z34.563
X71.628 Y37.014 Z34.556
X71.454 Y36.974 Z34.55
X71.278 Y36.951 Z34.544
X71.1 Y36.943 Z34.538
X70.486 Z34.516
X70.328 Y36.949 Z34.511
X70.17 Y36.968 Z34.505
X70.015 Y36.999 Z34.5
X69.863 Y37.042 Z34.494
X69.714 Y37.098 Z34.489
X69.571 Y37.165 Z34.483
X69.441 Y37.109 Z34.478
X69.308 Y37.062 Z34.473
X69.173 Y37.025 Z34.468
X69.035 Y36.998 Z34.463
X68.351 Y36.887 Z34.439
X68.21 Y36.869 Z34.434
X68.068 Y36.861 Z34.429
X67.925 Y36.864 Z34.424
X67.784 Y36.876 Z34.419
X67.239 Y36.944 Z34.4
X67.077 Y36.971 Z34.394
X66.917 Y37.011 Z34.389
X66.762 Y37.064 Z34.383
X66.611 Y37.13 Z34.377
X66.124 Y37.367 Z34.358
X65.978 Y37.29 Z34.352
X65.598 Y37.111 Z34.338
X65.461 Y37.053 Z34.333
X65.32 Y37.005 Z34.327
X65.177 Y36.968 Z34.322
X65.03 Y36.941 Z34.317
X64.614 Y36.881 Z34.302
X64.469 Y36.866 Z34.297
X64.323 Y36.861 Z34.292
X64.177 Y36.867 Z34.287
X64.032 Y36.883 Z34.282
X63.889 Y36.91 Z34.277
X63.633 Y36.968 Z34.268
X63.475 Y36.949 Z34.262
X63.317 Y36.943 Z34.257
X62.747 Z34.237
X62.579 Y36.95 Z34.231
X62.412 Y36.971 Z34.225
X62.247 Y37.006 Z34.219
X62.086 Y37.055 Z34.213
X61.929 Y37.118 Z34.207
X61.778 Y37.193 Z34.201
X61.634 Y37.281 Z34.196
X61.499 Y37.38 Z34.19
X61.371 Y37.491 Z34.184
X61.254 Y37.612 Z34.178
X61.147 Y37.743 Z34.172
X61.04 Y37.642 Z34.167
X60.926 Y37.55 Z34.162
X60.805 Y37.467 Z34.157
X60.679 Y37.392 Z34.151
X60.249 Y37.16 Z34.134
X60.115 Y37.095 Z34.129
X59.977 Y37.039 Z34.124
X59.835 Y36.994 Z34.119
X59.69 Y36.959 Z34.114
X59.543 Y36.935 Z34.108
X59.055 Y36.876 Z34.091
X58.907 Y36.863 Z34.086
X58.759 Y36.861 Z34.081
X58.611 Y36.871 Z34.076
X58.464 Y36.891 Z34.071
X57.837 Y37.002 Z34.048
X57.762 Y36.985 Z34.046
X57.83 Y36.82 Z34.039
X57.977 Y36.837 Z34.034
X58.124 Y36.843 Z34.029
X58.272 Y36.838 Z34.024
X58.418 Y36.823 Z34.019
X58.563 Y36.796 Z34.014
X58.896 Y36.723 Z34.002
X59.025 Y36.744 Z33.997
X59.155 Y36.757 Z33.993
X59.285 Y36.761 Z33.988
X59.838 Z33.969
X59.995 Y36.755 Z33.963
X60.152 Y36.736 Z33.958
X60.307 Y36.706 Z33.952
X60.458 Y36.663 Z33.947
X60.606 Y36.608 Z33.941
X60.749 Y36.542 Z33.936
X60.91 Y36.608 Z33.93
X61.075 Y36.66 Z33.924
X61.245 Y36.697 Z33.918
X61.908 Y36.813 Z33.894
X62.071 Y36.835 Z33.888
X62.236 Y36.843 Z33.883
X62.401 Y36.838 Z33.877
X62.564 Y36.819 Z33.871
X63.172 Y36.723 Z33.85
X63.316 Y36.695 Z33.844
X63.457 Y36.656 Z33.839
X63.595 Y36.607 Z33.834
X63.729 Y36.548 Z33.829
X63.859 Y36.48 Z33.824
X64.391 Y36.173 Z33.802
X64.495 Y36.109 Z33.798
X64.595 Y36.039 Z33.794
X64.69 Y35.962 Z33.79
X64.837 Y36.042 Z33.784
X64.99 Y36.11 Z33.778
X65.148 Y36.164 Z33.772
X65.31 Y36.205 Z33.766
X65.728 Y36.293 Z33.751
X65.889 Y36.319 Z33.746
X66.052 Y36.333 Z33.74
X66.214 Z33.734
X66.377 Y36.321 Z33.729
X66.538 Y36.294 Z33.723
X66.959 Y36.208 Z33.708
X67.102 Y36.174 Z33.703
X67.243 Y36.128 Z33.698
X67.379 Y36.073 Z33.692
X67.512 Y36.007 Z33.687
X67.54 Y36.027 Z33.686
X68.015 Y36.36 Z33.666
X68.141 Y36.44 Z33.661
X68.272 Y36.512 Z33.655
X68.408 Y36.573 Z33.65
X68.548 Y36.624 Z33.645
X68.691 Y36.664 Z33.64
X68.837 Y36.694 Z33.635
X69.586 Y36.817 Z33.608
X69.735 Y36.835 Z33.603
X69.884 Y36.843 Z33.598
X70.034 Y36.839 Z33.592
X70.183 Y36.824 Z33.587
X70.714 Y36.751 Z33.568
X70.858 Y36.726 Z33.563
X71 Y36.69 Z33.558
X71.139 Y36.644 Z33.553
X71.274 Y36.588 Z33.548
X71.63 Y36.424 Z33.534
X71.776 Y36.508 Z33.528
X71.928 Y36.579 Z33.523
X72.086 Y36.638 Z33.517
X72.248 Y36.682 Z33.511
X72.413 Y36.713 Z33.505
X73.167 Y36.822 Z33.478
X73.315 Y36.838 Z33.473
X73.464 Y36.843 Z33.468
X73.613 Y36.837 Z33.463
X73.761 Y36.819 Z33.458
X74.583 Y36.691 Z33.429
X74.754 Y36.657 Z33.422
X74.922 Y36.608 Z33.416
X75.085 Y36.544 Z33.41
X75.242 Y36.466 Z33.404
X75.392 Y36.375 Z33.398
X75.542 Y36.46 Z33.392
X75.699 Y36.532 Z33.386
X75.862 Y36.591 Z33.38
X76.029 Y36.635 Z33.374
X76.337 Y36.705 Z33.363
X76.375 Y36.819 Z33.359
X76.419 Y36.931 Z33.354
X76.391 Y36.928 Z33.353
X75.827 Y36.871 Z33.334
X75.681 Y36.862 Z33.328
X75.535 Y36.863 Z33.323
X75.389 Y36.875 Z33.318
X75.245 Y36.897 Z33.313
X74.481 Y37.046 Z33.286
X74.357 Y37.074 Z33.282
X74.236 Y37.11 Z33.277
X74.083 Y37.05 Z33.271
X73.925 Y37.003 Z33.266
X73.764 Y36.97 Z33.26
X73.601 Y36.949 Z33.254
X73.436 Y36.943 Z33.248
X72.822 Z33.227
X72.644 Y36.951 Z33.221
X72.468 Y36.974 Z33.215
X72.294 Y37.014 Z33.208
X72.125 Y37.068 Z33.202
X71.961 Y37.138 Z33.196
X71.797 Y37.068 Z33.19
X71.628 Y37.014 Z33.183
X71.454 Y36.974 Z33.177
X71.278 Y36.951 Z33.171
X71.1 Y36.943 Z33.165
X70.486 Z33.143
X70.328 Y36.949 Z33.138
X70.17 Y36.968 Z33.132
X70.015 Y36.999 Z33.127
X69.863 Y37.042 Z33.121
X69.714 Y37.098 Z33.116
X69.571 Y37.165 Z33.11
X69.441 Y37.109 Z33.105
X69.308 Y37.062 Z33.1
X69.173 Y37.025 Z33.095
X69.035 Y36.998 Z33.09
X68.351 Y36.887 Z33.066
X68.21 Y36.869 Z33.061
X68.068 Y36.861 Z33.056
X67.925 Y36.864 Z33.051
X67.784 Y36.876 Z33.046
X67.239 Y36.944 Z33.027
X67.077 Y36.971 Z33.021
X66.917 Y37.011 Z33.016
X66.762 Y37.064 Z33.01
X66.611 Y37.13 Z33.004
X66.124 Y37.367 Z32.985
X65.978 Y37.29 Z32.98
X65.598 Y37.111 Z32.965
X65.461 Y37.053 Z32.96
X65.32 Y37.005 Z32.955
X65.177 Y36.968 Z32.949
X65.03 Y36.941 Z32.944
X64.614 Y36.881 Z32.929
X64.469 Y36.866 Z32.924
X64.323 Y36.861 Z32.919
X64.177 Y36.867 Z32.914
X64.032 Y36.883 Z32.909
X63.889 Y36.91 Z32.904
X63.633 Y36.968 Z32.895
X63.475 Y36.949 Z32.889
X63.317 Y36.943 Z32.884
X62.747 Z32.864
X62.579 Y36.95 Z32.858
X62.412 Y36.971 Z32.852
X62.247 Y37.006 Z32.846
X62.086 Y37.055 Z32.84
X61.929 Y37.118 Z32.834
X61.778 Y37.193 Z32.829
X61.634 Y37.281 Z32.823
X61.499 Y37.38 Z32.817
X61.371 Y37.491 Z32.811
X61.254 Y37.612 Z32.805
X61.147 Y37.743 Z32.799
X61.04 Y37.642 Z32.794
X60.926 Y37.55 Z32.789
X60.805 Y37.467 Z32.784
X60.679 Y37.392 Z32.779
X60.249 Y37.16 Z32.762
X60.115 Y37.095 Z32.756
X59.977 Y37.039 Z32.751
X59.835 Y36.994 Z32.746
X59.69 Y36.959 Z32.741
X59.543 Y36.935 Z32.735
X59.055 Y36.876 Z32.718
X58.907 Y36.863 Z32.713
X58.759 Y36.861 Z32.708
X58.611 Y36.871 Z32.703
X58.464 Y36.891 Z32.698
X57.837 Y37.002 Z32.675
X57.762 Y36.985 Z32.673
X57.83 Y36.82 Z32.666
X57.977 Y36.837 Z32.661
X58.124 Y36.843 Z32.656
X58.272 Y36.838 Z32.651
X58.418 Y36.823 Z32.646
X58.563 Y36.796 Z32.641
X58.896 Y36.723 Z32.629
X59.025 Y36.744 Z32.624
X59.155 Y36.757 Z32.62
X59.285 Y36.761 Z32.615
X59.838 Z32.596
X59.995 Y36.755 Z32.59
X60.152 Y36.736 Z32.585
X60.307 Y36.706 Z32.579
X60.458 Y36.663 Z32.574
X60.606 Y36.608 Z32.568
X60.749 Y36.542 Z32.563
X60.91 Y36.608 Z32.557
X61.075 Y36.66 Z32.551
X61.245 Y36.697 Z32.545
X61.908 Y36.813 Z32.521
X62.071 Y36.835 Z32.515
X62.236 Y36.843 Z32.51
X62.401 Y36.838 Z32.504
X62.564 Y36.819 Z32.498
X63.172 Y36.723 Z32.477
X63.316 Y36.695 Z32.471
X63.457 Y36.656 Z32.466
X63.595 Y36.607 Z32.461
X63.729 Y36.548 Z32.456
X63.859 Y36.48 Z32.451
X64.391 Y36.173 Z32.43
X64.495 Y36.109 Z32.425
X64.595 Y36.039 Z32.421
X64.69 Y35.962 Z32.417
X64.837 Y36.042 Z32.411
X64.99 Y36.11 Z32.405
X65.148 Y36.164 Z32.399
X65.31 Y36.205 Z32.393
X65.728 Y36.293 Z32.378
X65.889 Y36.319 Z32.373
X66.052 Y36.333 Z32.367
X66.214 Z32.361
X66.377 Y36.321 Z32.356
X66.538 Y36.294 Z32.35
X66.959 Y36.208 Z32.335
X67.102 Y36.174 Z32.33
X67.243 Y36.128 Z32.325
X67.379 Y36.073 Z32.32
X67.512 Y36.007 Z32.314
X67.54 Y36.027 Z32.313
X68.015 Y36.36 Z32.293
X68.141 Y36.44 Z32.288
X68.272 Y36.512 Z32.283
X68.408 Y36.573 Z32.277
X68.548 Y36.624 Z32.272
X68.691 Y36.664 Z32.267
X68.837 Y36.694 Z32.262
X69.586 Y36.817 Z32.235
X69.735 Y36.835 Z32.23
X69.884 Y36.843 Z32.225
X70.034 Y36.839 Z32.219
X70.183 Y36.824 Z32.214
X70.714 Y36.751 Z32.196
X70.858 Y36.726 Z32.19
X71 Y36.69 Z32.185
X71.139 Y36.644 Z32.18
X71.274 Y36.588 Z32.175
X71.63 Y36.424 Z32.161
X71.776 Y36.508 Z32.156
X71.928 Y36.579 Z32.15
X72.086 Y36.638 Z32.144
X72.248 Y36.682 Z32.138
X72.413 Y36.713 Z32.132
X73.167 Y36.822 Z32.105
X73.315 Y36.838 Z32.1
X73.464 Y36.843 Z32.095
X73.613 Y36.837 Z32.09
X73.761 Y36.819 Z32.085
X74.583 Y36.691 Z32.056
X74.754 Y36.657 Z32.049
X74.922 Y36.608 Z32.043
X75.085 Y36.544 Z32.037
X75.242 Y36.466 Z32.031
X75.392 Y36.375 Z32.025
X75.542 Y36.46 Z32.019
X75.699 Y36.532 Z32.013
X75.862 Y36.591 Z32.007
X76.029 Y36.635 Z32.001
X76.337 Y36.705 Z31.99
X76.375 Y36.819 Z31.986
X76.419 Y36.931 Z31.981
X76.391 Y36.928 Z31.98
X75.827 Y36.871 Z31.961
X75.681 Y36.862 Z31.956
X75.535 Y36.863 Z31.95
X75.389 Y36.875 Z31.945
X75.245 Y36.897 Z31.94
X74.481 Y37.046 Z31.913
X74.357 Y37.074 Z31.909
X74.236 Y37.11 Z31.904
X74.083 Y37.05 Z31.898
X73.925 Y37.003 Z31.893
X73.764 Y36.97 Z31.887
X73.601 Y36.949 Z31.881
X73.436 Y36.943 Z31.875
X72.822 Z31.854
X72.644 Y36.951 Z31.848
X72.468 Y36.974 Z31.842
X72.294 Y37.014 Z31.835
X72.125 Y37.068 Z31.829
X71.961 Y37.138 Z31.823
X71.797 Y37.068 Z31.817
X71.628 Y37.014 Z31.81
X71.454 Y36.974 Z31.804
X71.278 Y36.951 Z31.798
X71.1 Y36.943 Z31.792
X70.486 Z31.77
X70.328 Y36.949 Z31.765
X70.17 Y36.968 Z31.759
X70.015 Y36.999 Z31.754
X69.863 Y37.042 Z31.748
X69.714 Y37.098 Z31.743
X69.571 Y37.165 Z31.737
X69.441 Y37.109 Z31.732
X69.308 Y37.062 Z31.727
X69.173 Y37.025 Z31.722
X69.035 Y36.998 Z31.718
X68.351 Y36.887 Z31.693
X68.21 Y36.869 Z31.688
X68.068 Y36.861 Z31.683
X67.925 Y36.864 Z31.678
X67.784 Y36.876 Z31.673
X67.239 Y36.944 Z31.654
X67.077 Y36.971 Z31.649
X66.917 Y37.011 Z31.643
X66.762 Y37.064 Z31.637
X66.611 Y37.13 Z31.631
X66.124 Y37.367 Z31.612
X65.978 Y37.29 Z31.607
X65.598 Y37.111 Z31.592
X65.461 Y37.053 Z31.587
X65.32 Y37.005 Z31.582
X65.177 Y36.968 Z31.576
X65.03 Y36.941 Z31.571
X64.614 Y36.881 Z31.557
X64.469 Y36.866 Z31.551
X64.323 Y36.861 Z31.546
X64.177 Y36.867 Z31.541
X64.032 Y36.883 Z31.536
X63.889 Y36.91 Z31.531
X63.633 Y36.968 Z31.522
X63.475 Y36.949 Z31.516
X63.317 Y36.943 Z31.511
X62.747 Z31.491
X62.579 Y36.95 Z31.485
X62.412 Y36.971 Z31.479
X62.247 Y37.006 Z31.473
X62.086 Y37.055 Z31.467
X61.929 Y37.118 Z31.461
X61.778 Y37.193 Z31.456
X61.634 Y37.281 Z31.45
X61.499 Y37.38 Z31.444
X61.371 Y37.491 Z31.438
X61.254 Y37.612 Z31.432
X61.147 Y37.743 Z31.426
X61.04 Y37.642 Z31.421
X60.926 Y37.55 Z31.416
X60.805 Y37.467 Z31.411
X60.679 Y37.392 Z31.406
X60.249 Y37.16 Z31.389
X60.115 Y37.095 Z31.383
X59.977 Y37.039 Z31.378
X59.835 Y36.994 Z31.373
X59.69 Y36.959 Z31.368
X59.543 Y36.935 Z31.363
X59.055 Y36.876 Z31.345
X58.907 Y36.863 Z31.34
X58.759 Y36.861 Z31.335
X58.611 Y36.871 Z31.33
X58.464 Y36.891 Z31.325
X57.837 Y37.002 Z31.302
X57.762 Y36.985 Z31.3
X57.83 Y36.82 Z31.294
X57.977 Y36.837 Z31.288
X58.124 Y36.843 Z31.283
X58.272 Y36.838 Z31.278
X58.418 Y36.823 Z31.273
X58.563 Y36.796 Z31.268
X58.896 Y36.723 Z31.256
X59.025 Y36.744 Z31.251
X59.155 Y36.757 Z31.247
X59.285 Y36.761 Z31.242
X59.838 Z31.223
X59.995 Y36.755 Z31.217
X60.152 Y36.736 Z31.212
X60.307 Y36.706 Z31.206
X60.458 Y36.663 Z31.201
X60.606 Y36.608 Z31.195
X60.749 Y36.542 Z31.19
X60.91 Y36.608 Z31.184
X61.075 Y36.66 Z31.178
X61.245 Y36.697 Z31.172
X61.908 Y36.813 Z31.148
X62.071 Y36.835 Z31.142
X62.236 Y36.843 Z31.137
X62.401 Y36.838 Z31.131
X62.564 Y36.819 Z31.125
X63.172 Y36.723 Z31.104
X63.316 Y36.695 Z31.099
X63.457 Y36.656 Z31.093
X63.595 Y36.607 Z31.088
X63.729 Y36.548 Z31.083
X63.859 Y36.48 Z31.078
X64.391 Y36.173 Z31.057
X64.495 Y36.109 Z31.052
X64.595 Y36.039 Z31.048
X64.69 Y35.962 Z31.044
X64.837 Y36.042 Z31.038
X64.99 Y36.11 Z31.032
X65.148 Y36.164 Z31.026
X65.31 Y36.205 Z31.02
X65.728 Y36.293 Z31.006
X65.889 Y36.319 Z31
X66.052 Y36.333 Z30.994
X66.214 Z30.988
X66.377 Y36.321 Z30.983
X66.538 Y36.294 Z30.977
X66.959 Y36.208 Z30.962
X67.102 Y36.174 Z30.957
X67.243 Y36.128 Z30.952
X67.379 Y36.073 Z30.947
X67.512 Y36.007 Z30.941
X67.54 Y36.027 Z30.94
X68.015 Y36.36 Z30.92
X68.141 Y36.44 Z30.915
X68.272 Y36.512 Z30.91
X68.408 Y36.573 Z30.904
X68.548 Y36.624 Z30.899
X68.691 Y36.664 Z30.894
X68.837 Y36.694 Z30.889
X69.586 Y36.817 Z30.862
X69.735 Y36.835 Z30.857
X69.884 Y36.843 Z30.852
X70.034 Y36.839 Z30.847
X70.183 Y36.824 Z30.841
X70.714 Y36.751 Z30.823
X70.858 Y36.726 Z30.818
X71 Y36.69 Z30.812
X71.139 Y36.644 Z30.807
X71.274 Y36.588 Z30.802
X71.63 Y36.424 Z30.788
X71.776 Y36.508 Z30.783
X71.928 Y36.579 Z30.777
X72.086 Y36.638 Z30.771
X72.248 Y36.682 Z30.765
X72.413 Y36.713 Z30.759
X73.167 Y36.822 Z30.733
X73.315 Y36.838 Z30.727
X73.464 Y36.843 Z30.722
X73.613 Y36.837 Z30.717
X73.761 Y36.819 Z30.712
X74.583 Y36.691 Z30.683
X74.754 Y36.657 Z30.677
X74.922 Y36.608 Z30.67
X75.085 Y36.544 Z30.664
X75.242 Y36.466 Z30.658
X75.392 Y36.375 Z30.652
X75.542 Y36.46 Z30.646
X75.699 Y36.532 Z30.64
X75.862 Y36.591 Z30.634
X76.029 Y36.635 Z30.628
X76.337 Y36.705 Z30.617
X76.375 Y36.819 Z30.613
X76.419 Y36.931 Z30.608
X76.391 Y36.928
X75.827 Y36.871 Z30.588
X75.681 Y36.862 Z30.583
X75.535 Y36.863 Z30.578
X75.389 Y36.875 Z30.572
X75.245 Y36.897 Z30.567
X74.481 Y37.046 Z30.54
X74.357 Y37.074 Z30.536
X74.236 Y37.11 Z30.531
X74.083 Y37.05 Z30.526
X73.925 Y37.003 Z30.52
X73.764 Y36.97 Z30.514
X73.601 Y36.949 Z30.508
X73.436 Y36.943 Z30.503
X72.822 Z30.481
X72.644 Y36.951 Z30.475
X72.468 Y36.974 Z30.469
X72.294 Y37.014 Z30.462
X72.125 Y37.068 Z30.456
X71.961 Y37.138 Z30.45
X71.797 Y37.068 Z30.444
X71.628 Y37.014 Z30.438
X71.454 Y36.974 Z30.431
X71.278 Y36.951 Z30.425
X71.1 Y36.943 Z30.419
X70.486 Z30.397
X70.328 Y36.949 Z30.392
X70.17 Y36.968 Z30.386
X70.015 Y36.999 Z30.381
X69.863 Y37.042 Z30.375
X69.714 Y37.098 Z30.37
X69.571 Y37.165 Z30.364
X69.441 Y37.109 Z30.359
X69.308 Y37.062 Z30.354
X69.173 Y37.025 Z30.35
X69.035 Y36.998 Z30.345
X68.351 Y36.887 Z30.32
X68.21 Y36.869 Z30.315
X68.068 Y36.861 Z30.31
X67.925 Y36.864 Z30.306
X67.784 Y36.876 Z30.301
X67.239 Y36.944 Z30.281
X67.077 Y36.971 Z30.276
X66.917 Y37.011 Z30.27
X66.762 Y37.064 Z30.264
X66.611 Y37.13 Z30.258
X66.124 Y37.367 Z30.24
X65.978 Y37.29 Z30.234
X65.598 Y37.111 Z30.219
X65.461 Y37.053 Z30.214
X65.32 Y37.005 Z30.209
X65.177 Y36.968 Z30.203
X65.03 Y36.941 Z30.198
X64.614 Y36.881 Z30.184
X64.469 Y36.866 Z30.179
X64.323 Y36.861 Z30.173
X64.177 Y36.867 Z30.168
X64.032 Y36.883 Z30.163
X63.889 Y36.91 Z30.158
X63.633 Y36.968 Z30.149
X63.475 Y36.949 Z30.143
X63.317 Y36.943 Z30.138
X62.747 Z30.118
X62.579 Y36.95 Z30.112
X62.412 Y36.971 Z30.106
X62.247 Y37.006 Z30.1
X62.086 Y37.055 Z30.094
X61.929 Y37.118 Z30.089
X61.778 Y37.193 Z30.083
X61.634 Y37.281 Z30.077
X61.499 Y37.38 Z30.071
X61.371 Y37.491 Z30.065
X61.254 Y37.612 Z30.059
X61.147 Y37.743 Z30.053
X61.04 Y37.642 Z30.048
X60.926 Y37.55 Z30.043
X60.805 Y37.467 Z30.038
X60.679 Y37.392 Z30.033
X60.249 Y37.16 Z30.016
X60.115 Y37.095 Z30.01
X59.977 Y37.039 Z30.005
X59.835 Y36.994 Z30
X59.69 Y36.959 Z29.995
X59.543 Y36.935 Z29.99
X59.055 Y36.876 Z29.972
X58.907 Y36.863 Z29.967
X58.759 Y36.861 Z29.962
X58.611 Y36.871 Z29.957
X58.464 Y36.891 Z29.952
X57.837 Y37.002 Z29.93
X57.762 Y36.985 Z29.927
X57.83 Y36.82 Z29.921
X57.977 Y36.837 Z29.915
X58.124 Y36.843 Z29.91
X58.272 Y36.838 Z29.905
X58.418 Y36.823 Z29.9
X58.563 Y36.796 Z29.895
X58.896 Y36.723 Z29.883
X59.025 Y36.744 Z29.878
X59.155 Y36.757 Z29.874
X59.285 Y36.761 Z29.869
X59.838 Z29.85
X59.995 Y36.755 Z29.845
X60.152 Y36.736 Z29.839
X60.307 Y36.706 Z29.833
X60.458 Y36.663 Z29.828
X60.606 Y36.608 Z29.822
X60.749 Y36.542 Z29.817
X60.91 Y36.608 Z29.811
X61.075 Y36.66 Z29.805
X61.245 Y36.697 Z29.799
X61.908 Y36.813 Z29.775
X62.071 Y36.835 Z29.77
X62.236 Y36.843 Z29.764
X62.401 Y36.838 Z29.758
X62.564 Y36.819 Z29.752
X63.172 Y36.723 Z29.731
X63.316 Y36.695 Z29.726
X63.457 Y36.656 Z29.721
X63.595 Y36.607 Z29.715
X63.729 Y36.548 Z29.71
X63.859 Y36.48 Z29.705
X64.391 Y36.173 Z29.684
X64.495 Y36.109 Z29.679
X64.595 Y36.039 Z29.675
X64.69 Y35.962 Z29.671
X64.837 Y36.042 Z29.665
X64.99 Y36.11 Z29.659
X65.148 Y36.164 Z29.653
X65.31 Y36.205 Z29.648
X65.728 Y36.293 Z29.633
X65.889 Y36.319 Z29.627
X66.052 Y36.333 Z29.621
X66.214 Z29.616
X66.377 Y36.321 Z29.61
X66.538 Y36.294 Z29.604
X66.959 Y36.208 Z29.589
X67.102 Y36.174 Z29.584
X67.243 Y36.128 Z29.579
X67.379 Y36.073 Z29.574
X67.512 Y36.007 Z29.569
X67.54 Y36.027 Z29.567
X68.015 Y36.36 Z29.547
X68.141 Y36.44 Z29.542
X68.272 Y36.512 Z29.537
X68.408 Y36.573 Z29.531
X68.548 Y36.624 Z29.526
X68.691 Y36.664 Z29.521
X68.837 Y36.694 Z29.516
X69.586 Y36.817 Z29.489
X69.735 Y36.835 Z29.484
X69.884 Y36.843 Z29.479
X70.034 Y36.839 Z29.474
X70.183 Y36.824 Z29.468
X70.714 Y36.751 Z29.45
X70.858 Y36.726 Z29.445
X71 Y36.69 Z29.439
X71.139 Y36.644 Z29.434
X71.274 Y36.588 Z29.429
X71.63 Y36.424 Z29.416
X71.776 Y36.508 Z29.41
X71.928 Y36.579 Z29.404
X72.086 Y36.638 Z29.398
X72.248 Y36.682 Z29.392
X72.413 Y36.713 Z29.386
X73.167 Y36.822 Z29.36
X73.315 Y36.838 Z29.354
X73.464 Y36.843 Z29.349
X73.613 Y36.837 Z29.344
X73.761 Y36.819 Z29.339
X74.583 Y36.691 Z29.31
X74.754 Y36.657 Z29.304
X74.922 Y36.608 Z29.298
X75.085 Y36.544 Z29.291
X75.242 Y36.466 Z29.285
X75.392 Y36.375 Z29.279
X75.542 Y36.46 Z29.273
X75.699 Y36.532 Z29.267
X75.862 Y36.591 Z29.261
X76.029 Y36.635 Z29.255
X76.337 Y36.705 Z29.244
X76.375 Y36.819 Z29.24
X76.419 Y36.931 Z29.236
X76.391 Y36.928 Z29.235
X75.827 Y36.871 Z29.215
X75.681 Y36.862 Z29.21
X75.535 Y36.863 Z29.205
X75.389 Y36.875 Z29.199
X75.245 Y36.897 Z29.194
X74.481 Y37.046 Z29.167
X74.357 Y37.074 Z29.163
X74.236 Y37.11 Z29.158
X74.083 Y37.05 Z29.153
X73.925 Y37.003 Z29.147
X73.764 Y36.97 Z29.141
X73.601 Y36.949 Z29.135
X73.436 Y36.943 Z29.13
X72.822 Z29.108
X72.644 Y36.951 Z29.102
X72.468 Y36.974 Z29.096
X72.294 Y37.014 Z29.09
X72.125 Y37.068 Z29.083
X71.961 Y37.138 Z29.077
X71.797 Y37.068 Z29.071
X71.628 Y37.014 Z29.065
X71.454 Y36.974 Z29.058
X71.278 Y36.951 Z29.052
X71.1 Y36.943 Z29.046
X70.486 Z29.025
X70.328 Y36.949 Z29.019
X70.17 Y36.968 Z29.013
X70.015 Y36.999 Z29.008
X69.863 Y37.042 Z29.002
X69.714 Y37.098 Z28.997
X69.571 Y37.165 Z28.991
X69.441 Y37.109 Z28.986
X69.308 Y37.062 Z28.982
X69.173 Y37.025 Z28.977
X69.035 Y36.998 Z28.972
X68.351 Y36.887 Z28.948
X68.21 Y36.869 Z28.943
X68.068 Y36.861 Z28.938
X67.925 Y36.864 Z28.933
X67.784 Y36.876 Z28.928
X67.239 Y36.944 Z28.908
X67.077 Y36.971 Z28.903
X66.917 Y37.011 Z28.897
X66.762 Y37.064 Z28.891
X66.611 Y37.13 Z28.885
X66.124 Y37.367 Z28.867
X65.978 Y37.29 Z28.861
X65.598 Y37.111 Z28.846
X65.461 Y37.053 Z28.841
X65.32 Y37.005 Z28.836
X65.177 Y36.968 Z28.831
X65.03 Y36.941 Z28.825
X64.614 Y36.881 Z28.811
X64.469 Y36.866 Z28.806
X64.323 Y36.861 Z28.801
X64.177 Y36.867 Z28.795
X64.032 Y36.883 Z28.79
X63.889 Y36.91 Z28.785
X63.633 Y36.968 Z28.776
X63.475 Y36.949 Z28.771
X63.317 Y36.943 Z28.765
X62.747 Z28.745
X62.579 Y36.95 Z28.739
X62.412 Y36.971 Z28.733
X62.247 Y37.006 Z28.727
X62.086 Y37.055 Z28.722
X61.929 Y37.118 Z28.716
X61.778 Y37.193 Z28.71
X61.634 Y37.281 Z28.704
X61.499 Y37.38 Z28.698
X61.371 Y37.491 Z28.692
X61.254 Y37.612 Z28.686
X61.147 Y37.743 Z28.68
X61.04 Y37.642 Z28.675
X60.926 Y37.55 Z28.67
X60.805 Y37.467 Z28.665
X60.679 Y37.392 Z28.66
X60.249 Y37.16 Z28.643
X60.115 Y37.095 Z28.638
X59.977 Y37.039 Z28.632
X59.835 Y36.994 Z28.627
X59.69 Y36.959 Z28.622
X59.543 Y36.935 Z28.617
X59.055 Y36.876 Z28.6
X58.907 Y36.863 Z28.594
X58.759 Y36.861 Z28.589
X58.611 Y36.871 Z28.584
X58.464 Y36.891 Z28.579
X57.837 Y37.002 Z28.557
X57.762 Y36.985 Z28.554
X57.83 Y36.82 Z28.548
X57.977 Y36.837 Z28.543
X58.124 Y36.843 Z28.537
X58.272 Y36.838 Z28.532
X58.418 Y36.823 Z28.527
X58.563 Y36.796 Z28.522
X58.896 Y36.723 Z28.51
X59.025 Y36.744 Z28.506
X59.155 Y36.757 Z28.501
X59.285 Y36.761 Z28.496
X59.838 Z28.477
X59.995 Y36.755 Z28.472
X60.152 Y36.736 Z28.466
X60.307 Y36.706 Z28.461
X60.458 Y36.663 Z28.455
X60.606 Y36.608 Z28.45
X60.749 Y36.542 Z28.444
X60.91 Y36.608 Z28.438
X61.075 Y36.66 Z28.432
X61.245 Y36.697 Z28.426
X61.908 Y36.813 Z28.402
X62.071 Y36.835 Z28.397
X62.236 Y36.843 Z28.391
X62.401 Y36.838 Z28.385
X62.564 Y36.819 Z28.379
X63.172 Y36.723 Z28.358
X63.316 Y36.695 Z28.353
X63.457 Y36.656 Z28.348
X63.595 Y36.607 Z28.342
X63.729 Y36.548 Z28.337
X63.859 Y36.48 Z28.332
X64.391 Y36.173 Z28.311
X64.495 Y36.109 Z28.307
X64.595 Y36.039 Z28.302
X64.69 Y35.962 Z28.298
X64.837 Y36.042 Z28.292
X64.99 Y36.11 Z28.286
X65.148 Y36.164 Z28.28
X65.31 Y36.205 Z28.275
X65.728 Y36.293 Z28.26
X65.889 Y36.319 Z28.254
X66.052 Y36.333 Z28.248
X66.214 Z28.243
X66.377 Y36.321 Z28.237
X66.538 Y36.294 Z28.231
X66.959 Y36.208 Z28.216
X67.102 Y36.174 Z28.211
X67.243 Y36.128 Z28.206
X67.379 Y36.073 Z28.201
X67.512 Y36.007 Z28.196
X67.54 Y36.027 Z28.194
X68.015 Y36.36 Z28.174
X68.141 Y36.44 Z28.169
X68.272 Y36.512 Z28.164
X68.408 Y36.573 Z28.159
X68.548 Y36.624 Z28.153
X68.691 Y36.664 Z28.148
X68.837 Y36.694 Z28.143
X69.586 Y36.817 Z28.116
X69.735 Y36.835 Z28.111
X69.884 Y36.843 Z28.106
X70.034 Y36.839 Z28.101
X70.183 Y36.824 Z28.095
X70.714 Y36.751 Z28.077
X70.858 Y36.726 Z28.072
X71 Y36.69 Z28.067
X71.139 Y36.644 Z28.061
X71.274 Y36.588 Z28.056
X71.63 Y36.424 Z28.043
X71.776 Y36.508 Z28.037
X71.928 Y36.579 Z28.031
X72.086 Y36.638 Z28.025
X72.248 Y36.682 Z28.019
X72.413 Y36.713 Z28.013
X73.167 Y36.822 Z27.987
X73.315 Y36.838 Z27.982
X73.464 Y36.843 Z27.976
X73.613 Y36.837 Z27.971
X73.761 Y36.819 Z27.966
X74.583 Y36.691 Z27.937
X74.754 Y36.657 Z27.931
X74.922 Y36.608 Z27.925
X75.085 Y36.544 Z27.918
X75.242 Y36.466 Z27.912
X75.392 Y36.375 Z27.906
X75.542 Y36.46 Z27.9
X75.699 Y36.532 Z27.894
X75.862 Y36.591 Z27.888
X76.029 Y36.635 Z27.882
X76.337 Y36.705 Z27.871
X76.375 Y36.819 Z27.867
X76.419 Y36.931 Z27.863
X76.391 Y36.928 Z27.862
X75.827 Y36.871 Z27.842
X75.681 Y36.862 Z27.837
X75.535 Y36.863 Z27.832
X75.389 Y36.875 Z27.827
X75.245 Y36.897 Z27.821
X74.481 Y37.046 Z27.794
X74.357 Y37.074 Z27.79
X74.236 Y37.11 Z27.785
X74.083 Y37.05 Z27.78
X73.925 Y37.003 Z27.774
X73.764 Y36.97 Z27.768
X73.601 Y36.949 Z27.762
X73.436 Y36.943 Z27.757
X72.822 Z27.735
X72.644 Y36.951 Z27.729
X72.468 Y36.974 Z27.723
X72.294 Y37.014 Z27.717
X72.125 Y37.068 Z27.71
X71.961 Y37.138 Z27.704
X71.797 Y37.068 Z27.698
X71.628 Y37.014 Z27.692
X71.454 Y36.974 Z27.686
X71.278 Y36.951 Z27.679
X71.1 Y36.943 Z27.673
X70.486 Z27.652
X70.328 Y36.949 Z27.646
X70.17 Y36.968 Z27.641
X70.015 Y36.999 Z27.635
X69.863 Y37.042 Z27.63
X69.714 Y37.098 Z27.624
X69.571 Y37.165 Z27.618
X69.441 Y37.109 Z27.614
X69.308 Y37.062 Z27.609
X69.173 Y37.025 Z27.604
X69.035 Y36.998 Z27.599
X68.351 Y36.887 Z27.575
X68.21 Y36.869 Z27.57
X68.068 Y36.861 Z27.565
X67.925 Y36.864 Z27.56
X67.784 Y36.876 Z27.555
X67.239 Y36.944 Z27.536
X67.077 Y36.971 Z27.53
X66.917 Y37.011 Z27.524
X66.762 Y37.064 Z27.518
X66.611 Y37.13 Z27.513
X66.124 Y37.367 Z27.494
X65.978 Y37.29 Z27.488
X65.598 Y37.111 Z27.473
X65.461 Y37.053 Z27.468
X65.32 Y37.005 Z27.463
X65.177 Y36.968 Z27.458
X65.03 Y36.941 Z27.452
X64.614 Y36.881 Z27.438
X64.469 Y36.866 Z27.433
X64.323 Y36.861 Z27.428
X64.177 Y36.867 Z27.422
X64.032 Y36.883 Z27.417
X63.889 Y36.91 Z27.412
X63.633 Y36.968 Z27.403
X63.475 Y36.949 Z27.398
X63.317 Y36.943 Z27.392
X62.747 Z27.372
X62.579 Y36.95 Z27.366
X62.412 Y36.971 Z27.36
X62.247 Y37.006 Z27.354
X62.086 Y37.055 Z27.349
X61.929 Y37.118 Z27.343
X61.778 Y37.193 Z27.337
X61.634 Y37.281 Z27.331
X61.499 Y37.38 Z27.325
X61.371 Y37.491 Z27.319
X61.254 Y37.612 Z27.313
X61.147 Y37.743 Z27.307
X61.04 Y37.642 Z27.302
X60.926 Y37.55 Z27.297
X60.805 Y37.467 Z27.292
X60.679 Y37.392 Z27.287
X60.249 Y37.16 Z27.27
X60.115 Y37.095 Z27.265
X59.977 Y37.039 Z27.259
X59.835 Y36.994 Z27.254
X59.69 Y36.959 Z27.249
X59.543 Y36.935 Z27.244
X59.055 Y36.876 Z27.227
X58.907 Y36.863 Z27.221
X58.759 Y36.861 Z27.216
X58.611 Y36.871 Z27.211
X58.464 Y36.891 Z27.206
X57.837 Y37.002 Z27.184
X57.762 Y36.985 Z27.181
X57.83 Y36.82 Z27.175
X57.977 Y36.837 Z27.17
X58.124 Y36.843 Z27.165
X58.272 Y36.838 Z27.159
X58.418 Y36.823 Z27.154
X58.563 Y36.796 Z27.149
X58.896 Y36.723 Z27.137
X59.025 Y36.744 Z27.133
X59.155 Y36.757 Z27.128
X59.285 Y36.761 Z27.123
X59.838 Z27.104
X59.995 Y36.755 Z27.099
X60.152 Y36.736 Z27.093
X60.307 Y36.706 Z27.088
X60.458 Y36.663 Z27.082
X60.606 Y36.608 Z27.077
X60.749 Y36.542 Z27.071
X60.91 Y36.608 Z27.065
X61.075 Y36.66 Z27.059
X61.245 Y36.697 Z27.053
X61.908 Y36.813 Z27.029
X62.071 Y36.835 Z27.024
X62.236 Y36.843 Z27.018
X62.401 Y36.838 Z27.012
X62.564 Y36.819 Z27.006
X63.172 Y36.723 Z26.985
X63.316 Y36.695 Z26.98
X63.457 Y36.656 Z26.975
X63.595 Y36.607 Z26.97
X63.729 Y36.548 Z26.964
X63.859 Y36.48 Z26.959
X64.391 Y36.173 Z26.938
X64.495 Y36.109 Z26.934
X64.595 Y36.039 Z26.929
X64.69 Y35.962 Z26.925
X64.837 Y36.042 Z26.919
X64.99 Y36.11 Z26.913
X65.148 Y36.164 Z26.908
X65.31 Y36.205 Z26.902
X65.728 Y36.293 Z26.887
X65.889 Y36.319 Z26.881
X66.052 Y36.333 Z26.875
X66.214 Z26.87
X66.377 Y36.321 Z26.864
X66.538 Y36.294 Z26.858
X66.959 Y36.208 Z26.843
X67.102 Y36.174 Z26.838
X67.243 Y36.128 Z26.833
X67.379 Y36.073 Z26.828
X67.512 Y36.007 Z26.823
X67.54 Y36.027 Z26.822
X68.015 Y36.36 Z26.801
X68.141 Y36.44 Z26.796
X68.272 Y36.512 Z26.791
X68.408 Y36.573 Z26.786
X68.548 Y36.624 Z26.78
X68.691 Y36.664 Z26.775
X68.837 Y36.694 Z26.77
X69.586 Y36.817 Z26.744
X69.735 Y36.835 Z26.738
X69.884 Y36.843 Z26.733
X70.034 Y36.839 Z26.728
X70.183 Y36.824 Z26.723
X70.714 Y36.751 Z26.704
X70.858 Y36.726 Z26.699
X71 Y36.69 Z26.694
X71.139 Y36.644 Z26.689
X71.274 Y36.588 Z26.683
X71.63 Y36.424 Z26.67
X71.776 Y36.508 Z26.664
X71.928 Y36.579 Z26.658
X72.086 Y36.638 Z26.652
X72.248 Y36.682 Z26.646
X72.413 Y36.713 Z26.64
X73.167 Y36.822 Z26.614
X73.315 Y36.838 Z26.609
X73.464 Y36.843 Z26.603
X73.613 Y36.837 Z26.598
X73.761 Y36.819 Z26.593
X74.583 Y36.691 Z26.564
X74.754 Y36.657 Z26.558
X74.922 Y36.608 Z26.552
X75.085 Y36.544 Z26.546
X75.242 Y36.466 Z26.539
X75.392 Y36.375 Z26.533
X75.542 Y36.46 Z26.527
X75.699 Y36.532 Z26.521
X75.862 Y36.591 Z26.515
X76.029 Y36.635 Z26.509
X76.337 Y36.705 Z26.498
X76.375 Y36.819 Z26.494
X76.419 Y36.931 Z26.49
X76.391 Y36.928 Z26.489
X75.827 Y36.871 Z26.469
X75.681 Y36.862 Z26.464
X75.535 Y36.863 Z26.459
X75.389 Y36.875 Z26.454
X75.245 Y36.897 Z26.449
X74.481 Y37.046 Z26.421
X74.357 Y37.074 Z26.417
X74.236 Y37.11 Z26.413
X74.083 Y37.05 Z26.407
X73.925 Y37.003 Z26.401
X73.764 Y36.97 Z26.395
X73.601 Y36.949 Z26.39
X73.436 Y36.943 Z26.384
X72.822 Z26.362
X72.644 Y36.951 Z26.356
X72.468 Y36.974 Z26.35
X72.294 Y37.014 Z26.344
X72.125 Y37.068 Z26.337
X71.961 Y37.138 Z26.331
X71.797 Y37.068 Z26.325
X71.628 Y37.014 Z26.319
X71.454 Y36.974 Z26.313
X71.278 Y36.951 Z26.306
X71.1 Y36.943 Z26.3
X70.486 Z26.279
X70.328 Y36.949 Z26.273
X70.17 Y36.968 Z26.268
X70.015 Y36.999 Z26.262
X69.863 Y37.042 Z26.257
X69.714 Y37.098 Z26.251
X69.571 Y37.165 Z26.246
X69.441 Y37.109 Z26.241
X69.308 Y37.062 Z26.236
X69.173 Y37.025 Z26.231
X69.035 Y36.998 Z26.226
X68.351 Y36.887 Z26.202
X68.21 Y36.869 Z26.197
X68.068 Y36.861 Z26.192
X67.925 Y36.864 Z26.187
X67.784 Y36.876 Z26.182
X67.239 Y36.944 Z26.163
X67.077 Y36.971 Z26.157
X66.917 Y37.011 Z26.151
X66.762 Y37.064 Z26.145
X66.611 Y37.13 Z26.14
X66.124 Y37.367 Z26.121
X65.978 Y37.29 Z26.115
X65.598 Y37.111 Z26.1
X65.461 Y37.053 Z26.095
X65.32 Y37.005 Z26.09
X65.177 Y36.968 Z26.085
X65.03 Y36.941 Z26.08
X64.614 Y36.881 Z26.065
X64.469 Y36.866 Z26.06
X64.323 Y36.861 Z26.055
X64.177 Y36.867 Z26.05
X64.032 Y36.883 Z26.044
X63.889 Y36.91 Z26.039
X63.633 Y36.968 Z26.03
X63.475 Y36.949 Z26.025
X63.317 Y36.943 Z26.019
X62.747 Z25.999
X62.579 Y36.95 Z25.993
X62.412 Y36.971 Z25.987
X62.247 Y37.006 Z25.982
X62.086 Y37.055 Z25.976
X61.929 Y37.118 Z25.97
X61.778 Y37.193 Z25.964
X61.634 Y37.281 Z25.958
X61.499 Y37.38 Z25.952
X61.371 Y37.491 Z25.946
X61.254 Y37.612 Z25.94
X61.147 Y37.743 Z25.934
X61.04 Y37.642 Z25.929
X60.926 Y37.55 Z25.924
X60.805 Y37.467 Z25.919
X60.679 Y37.392 Z25.914
X60.249 Y37.16 Z25.897
X60.115 Y37.095 Z25.892
X59.977 Y37.039 Z25.887
X59.835 Y36.994 Z25.881
X59.69 Y36.959 Z25.876
X59.543 Y36.935 Z25.871
X59.055 Y36.876 Z25.854
X58.907 Y36.863 Z25.849
X58.759 Y36.861 Z25.843
X58.611 Y36.871 Z25.838
X58.464 Y36.891 Z25.833
X57.837 Y37.002 Z25.811
X57.762 Y36.985 Z25.808
X57.83 Y36.82 Z25.802
X57.977 Y36.837 Z25.797
X58.124 Y36.843 Z25.792
X58.272 Y36.838 Z25.786
X58.418 Y36.823 Z25.781
X58.563 Y36.796 Z25.776
X58.896 Y36.723 Z25.764
X59.025 Y36.744 Z25.76
X59.155 Y36.757 Z25.755
X59.285 Y36.761 Z25.751
X59.838 Z25.731
X59.995 Y36.755 Z25.726
X60.152 Y36.736 Z25.72
X60.307 Y36.706 Z25.715
X60.458 Y36.663 Z25.709
X60.606 Y36.608 Z25.704
X60.749 Y36.542 Z25.698
X60.91 Y36.608 Z25.692
X61.075 Y36.66 Z25.686
X61.245 Y36.697 Z25.68
X61.908 Y36.813 Z25.657
X62.071 Y36.835 Z25.651
X62.236 Y36.843 Z25.645
X62.401 Y36.838 Z25.639
X62.564 Y36.819 Z25.633
X63.172 Y36.723 Z25.612
X63.316 Y36.695 Z25.607
X63.457 Y36.656 Z25.602
X63.595 Y36.607 Z25.597
X63.729 Y36.548 Z25.592
X63.859 Y36.48 Z25.586
X64.391 Y36.173 Z25.565
X64.495 Y36.109 Z25.561
X64.595 Y36.039 Z25.556
X64.69 Y35.962 Z25.552
X64.837 Y36.042 Z25.546
X64.99 Y36.11 Z25.541
X65.148 Y36.164 Z25.535
X65.31 Y36.205 Z25.529
X65.728 Y36.293 Z25.514
X65.889 Y36.319 Z25.508
X66.052 Y36.333 Z25.503
X66.214 Z25.497
X66.377 Y36.321 Z25.491
X66.538 Y36.294 Z25.485
X66.959 Y36.208 Z25.47
X67.102 Y36.174 Z25.465
X67.243 Y36.128 Z25.46
X67.379 Y36.073 Z25.455
X67.512 Y36.007 Z25.45
X67.54 Y36.027 Z25.449
X68.015 Y36.36 Z25.428
X68.141 Y36.44 Z25.423
X68.272 Y36.512 Z25.418
X68.408 Y36.573 Z25.413
X68.548 Y36.624 Z25.408
X68.691 Y36.664 Z25.402
X68.837 Y36.694 Z25.397
X69.586 Y36.817 Z25.371
X69.735 Y36.835 Z25.365
X69.884 Y36.843 Z25.36
X70.034 Y36.839 Z25.355
X70.183 Y36.824 Z25.35
X70.714 Y36.751 Z25.331
X70.858 Y36.726 Z25.326
X71 Y36.69 Z25.321
X71.139 Y36.644 Z25.316
X71.274 Y36.588 Z25.311
X71.63 Y36.424 Z25.297
X71.776 Y36.508 Z25.291
X71.928 Y36.579 Z25.285
X72.086 Y36.638 Z25.279
X72.248 Y36.682 Z25.273
X72.413 Y36.713 Z25.267
X73.167 Y36.822 Z25.241
X73.315 Y36.838 Z25.236
X73.464 Y36.843 Z25.23
X73.613 Y36.837 Z25.225
X73.761 Y36.819 Z25.22
X74.583 Y36.691 Z25.191
X74.754 Y36.657 Z25.185
X74.922 Y36.608 Z25.179
X75.085 Y36.544 Z25.173
X75.242 Y36.466 Z25.167
X75.392 Y36.375 Z25.16
X75.542 Y36.46 Z25.154
X75.699 Y36.532 Z25.148
X75.862 Y36.591 Z25.142
X76.029 Y36.635 Z25.136
X76.337 Y36.705 Z25.125
X76.375 Y36.819 Z25.121
X76.419 Y36.931 Z25.117
X76.391 Y36.928 Z25.116
X75.827 Y36.871 Z25.096
X75.681 Y36.862 Z25.091
X75.535 Y36.863 Z25.086
X75.389 Y36.875 Z25.081
X75.245 Y36.897 Z25.076
X74.481 Y37.046 Z25.048
X74.357 Y37.074 Z25.044
X74.236 Y37.11 Z25.04
X74.083 Y37.05 Z25.034
X73.925 Y37.003 Z25.028
X73.764 Y36.97 Z25.022
X73.601 Y36.949 Z25.017
X73.436 Y36.943 Z25.011
X72.822 Z24.989
X72.644 Y36.951 Z24.983
X72.468 Y36.974 Z24.977
X72.294 Y37.014 Z24.971
X72.125 Y37.068 Z24.965
X71.961 Y37.138 Z24.958
X71.797 Y37.068 Z24.952
X71.628 Y37.014 Z24.946
X71.454 Y36.974 Z24.94
X71.278 Y36.951 Z24.933
X71.1 Y36.943 Z24.927
X70.486 Z24.906
X70.328 Y36.949 Z24.9
X70.17 Y36.968 Z24.895
X70.015 Y36.999 Z24.889
X69.863 Y37.042 Z24.884
X69.714 Y37.098 Z24.878
X69.571 Y37.165 Z24.873
X69.441 Y37.109 Z24.868
X69.308 Y37.062 Z24.863
X69.173 Y37.025 Z24.858
X69.035 Y36.998 Z24.853
X68.351 Y36.887 Z24.829
X68.21 Y36.869 Z24.824
X68.068 Y36.861 Z24.819
X67.925 Y36.864 Z24.814
X67.784 Y36.876 Z24.809
X67.239 Y36.944 Z24.79
X67.077 Y36.971 Z24.784
X66.917 Y37.011 Z24.778
X66.762 Y37.064 Z24.772
X66.611 Y37.13 Z24.767
X66.18 Y37.339 Z24.75
X66.124 Y37.367 F200
X65.978 Y37.29
X65.598 Y37.111
X65.461 Y37.053
X65.32 Y37.005
X65.177 Y36.968
X65.03 Y36.941
X64.614 Y36.881
X64.469 Y36.866
X64.323 Y36.861
X64.177 Y36.867
X64.032 Y36.883
X63.889 Y36.91
X63.633 Y36.968
X63.475 Y36.949
X63.317 Y36.943
X62.747
X62.579 Y36.95
X62.412 Y36.971
X62.247 Y37.006
X62.086 Y37.055
X61.929 Y37.118
X61.778 Y37.193
X61.634 Y37.281
X61.499 Y37.38
X61.371 Y37.491
X61.254 Y37.612
X61.147 Y37.743
X61.04 Y37.642
X60.926 Y37.55
X60.805 Y37.467
X60.679 Y37.392
X60.249 Y37.16
X60.115 Y37.095
X59.977 Y37.039
X59.835 Y36.994
X59.69 Y36.959
X59.543 Y36.935
X59.055 Y36.876
X58.907 Y36.863
X58.759 Y36.861
X58.611 Y36.871
X58.464 Y36.891
X57.837 Y37.002
X57.762 Y36.985
X57.83 Y36.82
X57.977 Y36.837
X58.124 Y36.843
X58.272 Y36.838
X58.418 Y36.823
X58.563 Y36.796
X58.896 Y36.723
X59.025 Y36.744
X59.155 Y36.757
X59.285 Y36.761
X59.838
X59.995 Y36.755
X60.152 Y36.736
X60.307 Y36.706
X60.458 Y36.663
X60.606 Y36.608
X60.749 Y36.542
X60.91 Y36.608
X61.075 Y36.66
X61.245 Y36.697
X61.908 Y36.813
X62.071 Y36.835
X62.236 Y36.843
X62.401 Y36.838
X62.564 Y36.819
X63.172 Y36.723
X63.316 Y36.695
X63.457 Y36.656
X63.595 Y36.607
X63.729 Y36.548
X63.859 Y36.48
X64.391 Y36.173
X64.495 Y36.109
X64.595 Y36.039
X64.69 Y35.962
X64.837 Y36.042
X64.99 Y36.11
X65.148 Y36.164
X65.31 Y36.205
X65.728 Y36.293
X65.889 Y36.319
X66.052 Y36.333
X66.214
X66.377 Y36.321
X66.538 Y36.294
X66.959 Y36.208
X67.102 Y36.174
X67.243 Y36.128
X67.379 Y36.073
X67.512 Y36.007
X67.54 Y36.027
X68.015 Y36.36
X68.141 Y36.44
X68.272 Y36.512
X68.408 Y36.573
X68.548 Y36.624
X68.691 Y36.664
X68.837 Y36.694
X69.586 Y36.817
X69.735 Y36.835
X69.884 Y36.843
X70.034 Y36.839
X70.183 Y36.824
X70.714 Y36.751
X70.858 Y36.726
X71 Y36.69
X71.139 Y36.644
X71.274 Y36.588
X71.63 Y36.424
X71.776 Y36.508
X71.928 Y36.579
X72.086 Y36.638
X72.248 Y36.682
X72.413 Y36.713
X73.167 Y36.822
X73.315 Y36.838
X73.464 Y36.843
X73.613 Y36.837
X73.761 Y36.819
X74.583 Y36.691
X74.754 Y36.657
X74.922 Y36.608
X75.085 Y36.544
X75.242 Y36.466
X75.392 Y36.375
X75.542 Y36.46
X75.699 Y36.532
X75.862 Y36.591
X76.029 Y36.635
X76.337 Y36.705
X76.375 Y36.819
X76.419 Y36.931
X76.391 Y36.928
X75.827 Y36.871
X75.681 Y36.862
X75.535 Y36.863
X75.389 Y36.875
X75.245 Y36.897
X74.481 Y37.046
X74.357 Y37.074
X74.236 Y37.11
X74.083 Y37.05
X73.925 Y37.003
X73.764 Y36.97
X73.601 Y36.949
X73.436 Y36.943
X72.822
X72.644 Y36.951
X72.468 Y36.974
X72.294 Y37.014
X72.125 Y37.068
X71.961 Y37.138
X71.797 Y37.068
X71.628 Y37.014
X71.454 Y36.974
X71.278 Y36.951
X71.1 Y36.943
X70.486
X70.328 Y36.949
X70.17 Y36.968
X70.015 Y36.999
X69.863 Y37.042
X69.714 Y37.098
X69.571 Y37.165
X69.441 Y37.109
X69.308 Y37.062
X69.173 Y37.025
X69.035 Y36.998
X68.351 Y36.887
X68.21 Y36.869
X68.068 Y36.861
X67.925 Y36.864
X67.784 Y36.876
X67.239 Y36.944
X67.077 Y36.971
X66.917 Y37.011
X66.762 Y37.064
X66.611 Y37.13
X66.18 Y37.339
X66.124 Y37.367 Z24.756
X66.045 Y37.323 Z24.792
X65.978 Y37.29 Z24.854
X65.95 Y37.277 Z24.897
X65.929 Y37.267 Z24.946
X65.916 Y37.261 Z24.997
X65.912 Y37.259 Z25.05
G0 Z55
X66.154 Y76.431
G1 Z50.6 F333.3
Z25.05 F200
X66.161 Z24.983
X66.183 Y76.428 Z24.92
X66.219 Y76.425 Z24.863
X66.266 Y76.42 Z24.815
X66.323 Y76.415 Z24.78
X66.386 Y76.408 Z24.758
X66.452 Y76.402 Z24.75
X66.482 Y76.399
X66.783 Y76.368
X67.218 Y76.33
X67.654 Y76.307
X68.09 Y76.299
X68.526 Y76.307
X68.962 Y76.33
X69.397 Y76.368
X69.698 Y76.399
X69.752 Y76.412
X69.8 Y76.439
X69.839 Y76.478
X69.865 Y76.526
X69.878 Y76.58
X69.875 Y76.635
X69.858 Y76.687
X69.826 Y76.733
X69.784 Y76.768
X69.733 Y76.79
X69.679 Y76.798
X43.282
X43.228 Y76.79
X43.177 Y76.768
X43.135 Y76.733
X43.103 Y76.687
X43.086 Y76.635
X43.083 Y76.58
X43.095 Y76.527
X43.122 Y76.478
X43.16 Y76.439
X43.208 Y76.412
X43.262 Y76.399
X43.872 Y76.33
X44.481 Y76.251
X45.088 Y76.16
X45.694 Y76.059
X46.298 Y75.947
X46.9 Y75.823
X47.127 Y75.782
X47.356 Y75.754
X47.586 Y75.74
X47.817
X48.047 Y75.754
X48.276 Y75.782
X48.503 Y75.823
X49.105 Y75.947
X49.71 Y76.059
X50.316 Y76.161
X50.924 Y76.251
X51.533 Y76.331
X52.144 Y76.399
X52.156 Y76.4
X52.222 Y76.407 Z24.758
X52.286 Y76.413 Z24.78
X52.342 Y76.419 Z24.815
X52.389 Y76.424 Z24.863
X52.425 Y76.428 Z24.92
X52.447 Y76.43 Z24.983
X52.455 Y76.431 Z25.05
G0 Z55
X-2 Y74.273
G1 Z25.05 F333.3
X-1.996 Y74.279 Z24.983 F200
X-1.982 Y74.297 Z24.92
X-1.961 Y74.325 Z24.863
X-1.932 Y74.363 Z24.815
X-1.897 Y74.408 Z24.78
X-1.859 Y74.459 Z24.758
X-1.818 Y74.512 Z24.75
X-1.374 Y75.094
X-0.915 Y75.686
X-0.448 Y76.272
X-0.403 Y76.339
X-0.372 Y76.413
X-0.355 Y76.492
X-0.354 Y76.573
X-0.368 Y76.653
X-0.397 Y76.728
X-0.44 Y76.797
X-0.495 Y76.856
X-0.56 Y76.904
X-0.632 Y76.939
X-0.711 Y76.959
X-0.791 Y76.964
X-0.871 Y76.954
X-0.948 Y76.929
X-1.019 Y76.89
X-1.08 Y76.838
X-1.465 Y76.448
X-1.508 Y76.396
X-1.543 Y76.339
X-1.568 Y76.277
X-1.583 Y76.212
X-1.711 Y75.352
X-2.168 Y72.477
X-2.173 Y72.395
X-2.162 Y72.314
X-2.136 Y72.237
X-2.096 Y72.166
X-2.043 Y72.104
X-1.978 Y72.053
X-1.906 Y72.016
X-1.828 Y71.993
X-1.746 Y71.985
X-1.665 Y71.993
X-1.587 Y72.017
X-1.515 Y72.055
X-1.451 Y72.106
X-1.398 Y72.169
X-0.959 Y72.794
X-0.51 Y73.413
X-0.051 Y74.025
X0.417 Y74.629
X0.894 Y75.227
X1.38 Y75.817
X1.875 Y76.399
X1.921 Y76.463
X1.954 Y76.535
X1.973 Y76.612
X1.978 Y76.691
X1.968 Y76.769
X1.944 Y76.844
X1.906 Y76.914
X1.857 Y76.975
X1.796 Y77.026
X1.727 Y77.065
X1.653 Y77.09
X1.574 Y77.101
X1.495 Y77.098
X1.419 Y77.08
X1.346 Y77.048
X1.281 Y77.003
X1.225 Y76.947
X-0.441 Y74.924
X-0.468 Y74.887
X-0.491 Y74.848
X-1.748 Y72.41
X-1.776 Y72.343
X-1.791 Y72.271
X-2.18 Y69.34
X-2.183 Y69.263
X-2.172 Y69.186
X-2.148 Y69.113
X-2.111 Y69.046
X-2.062 Y68.986
X-2.003 Y68.936
X-1.936 Y68.898
X-1.864 Y68.872
X-1.788 Y68.86
X-1.711 Y68.862
X-1.635 Y68.877
X-1.564 Y68.906
X-1.499 Y68.947
X-1.442 Y69
X-1.396 Y69.061
X-0.952 Y69.77
X-0.495 Y70.471
X-0.026 Y71.164
X0.455 Y71.849
X0.948 Y72.525
X1.453 Y73.193
X1.969 Y73.852
X2.497 Y74.501
X3.036 Y75.141
X3.586 Y75.772
X4.147 Y76.393
X4.195 Y76.456
X4.23 Y76.528
X4.252 Y76.604
X4.259 Y76.683
X4.251 Y76.763
X4.228 Y76.839
X4.192 Y76.91
X4.143 Y76.972
X4.083 Y77.025
X4.014 Y77.065
X3.939 Y77.092
X3.861 Y77.105
X3.781 Y77.102
X3.703 Y77.085
X3.63 Y77.054
X3.564 Y77.009
X3.508 Y76.953
X0.566 Y73.439
X0.521 Y73.373
X-1.758 Y69.284
X-1.782 Y69.234
X-1.799 Y69.181
X-1.809 Y69.127
X-2.194 Y65.889
X-2.196 Y65.811
X-2.184 Y65.734
X-2.157 Y65.66
X-2.118 Y65.592
X-2.066 Y65.533
X-2.005 Y65.484
X-1.936 Y65.447
X-1.861 Y65.424
X-1.783 Y65.414
X-1.705 Y65.42
X-1.629 Y65.439
X-1.558 Y65.472
X-1.494 Y65.518
X-1.44 Y65.574
X-1.397 Y65.64
X-0.998 Y66.375
X-0.586 Y67.102
X-0.16 Y67.822
X0.278 Y68.534
X0.729 Y69.239
X1.192 Y69.934
X1.669 Y70.622
X2.157 Y71.3
X2.658 Y71.97
X3.17 Y72.631
X3.695 Y73.282
X4.231 Y73.923
X4.779 Y74.555
X5.338 Y75.177
X5.908 Y75.789
X6.489 Y76.39
X6.54 Y76.452
X6.578 Y76.522
X6.602 Y76.599
X6.611 Y76.679
X6.606 Y76.759
X6.585 Y76.836
X6.55 Y76.908
X6.502 Y76.973
X6.443 Y77.027
X6.375 Y77.069
X6.3 Y77.097
X6.221 Y77.111
X6.141 Y77.11
X6.062 Y77.094
X5.988 Y77.064
X5.921 Y77.02
X5.863 Y76.964
X1.522 Y71.876
X1.495 Y71.841
X1.472 Y71.803
X-1.772 Y65.839
X-1.795 Y65.789
X-1.812 Y65.735
X-1.821 Y65.68
X-2.211 Y61.939
X-2.212 Y61.859
X-2.198 Y61.78
X-2.169 Y61.706
X-2.126 Y61.637
X-2.072 Y61.579
X-2.007 Y61.531
X-1.935 Y61.496
X-1.857 Y61.476
X-1.777 Y61.471
X-1.698 Y61.48
X-1.621 Y61.505
X-1.551 Y61.543
X-1.489 Y61.594
X-1.438 Y61.656
X-1.399 Y61.726
X-1.064 Y62.475
X-0.716 Y63.218
X-0.354 Y63.955
X0.021 Y64.685
X0.41 Y65.408
X0.812 Y66.123
X1.227 Y66.831
X1.656 Y67.532
X2.097 Y68.224
X2.55 Y68.908
X3.016 Y69.583
X3.495 Y70.25
X3.986 Y70.908
X4.489 Y71.557
X5.003 Y72.196
X5.529 Y72.826
X6.067 Y73.446
X6.617 Y74.056
X7.177 Y74.656
X7.748 Y75.245
X8.33 Y75.824
X8.923 Y76.392
X8.976 Y76.452
X9.017 Y76.522
X9.044 Y76.599
X9.056 Y76.679
X9.053 Y76.759
X9.034 Y76.838
X9.001 Y76.912
X8.954 Y76.978
X8.896 Y77.034
X8.828 Y77.078
X8.753 Y77.108
X8.673 Y77.124
X8.592
X8.513 Y77.109
X8.438 Y77.079
X8.37 Y77.036
X8.311 Y76.98
X2.38 Y70.161
X2.348 Y70.118
X2.321 Y70.073
X-1.788 Y61.895
X-1.818 Y61.82
X-1.832 Y61.74
X-2.225 Y57.061
Y56.983
X-2.21 Y56.907
X-2.182 Y56.835
X-2.141 Y56.77
X-2.089 Y56.712
X-2.028 Y56.665
X-1.959 Y56.63
X-1.885 Y56.608
X-1.808 Y56.6
X-1.73 Y56.606
X-1.656 Y56.626
X-1.586 Y56.659
X-1.523 Y56.705
X-1.469 Y56.761
X-1.427 Y56.825
X-1.397 Y56.897
X-1.143 Y57.672
X-0.874 Y58.442
X-0.591 Y59.208
X-0.293 Y59.967
X0.02 Y60.721
X0.346 Y61.469
X0.687 Y62.21
X1.042 Y62.945
X1.41 Y63.672
X1.793 Y64.393
X2.189 Y65.106
X2.599 Y65.812
X3.022 Y66.509
X3.458 Y67.199
X3.907 Y67.88
X4.37 Y68.552
X4.845 Y69.216
X5.332 Y69.87
X5.832 Y70.515
X6.344 Y71.15
X6.868 Y71.775
X7.404 Y72.391
X7.951 Y72.996
X8.51 Y73.59
X9.08 Y74.174
X9.661 Y74.747
X10.253 Y75.308
X10.855 Y75.858
X11.468 Y76.397
X11.525 Y76.456
X11.569 Y76.525
X11.599 Y76.601
X11.614 Y76.681
X11.613 Y76.763
X11.597 Y76.843
X11.566 Y76.919
X11.52 Y76.987
X11.463 Y77.045
X11.395 Y77.091
X11.32 Y77.124
X11.24 Y77.141
X11.158 Y77.143
X11.078 Y77.128
X11.001 Y77.099
X10.932 Y77.056
X10.872 Y77
X3.043 Y68.12
X3.003 Y68.067
X2.972 Y68.009
X-1.802 Y57.025
X-1.826 Y56.953
X-1.837 Y56.878
X-2.245 Y49.002
X-2.241 Y48.921
X-2.222 Y48.841
X-2.188 Y48.767
X-2.141 Y48.701
X-2.082 Y48.645
X-2.013 Y48.601
X-1.937 Y48.571
X-1.857 Y48.557
X-1.776
X-1.696 Y48.574
X-1.621 Y48.605
X-1.553 Y48.65
X-1.495 Y48.707
X-1.449 Y48.774
X-1.416 Y48.849
X-1.399 Y48.929
X-1.293 Y49.731
X-1.171 Y50.532
X-1.033 Y51.33
X-0.88 Y52.125
X-0.711 Y52.917
X-0.527 Y53.706
X-0.327 Y54.491
X-0.112 Y55.272
X0.119 Y56.048
X0.365 Y56.82
X0.626 Y57.586
X0.902 Y58.348
X1.193 Y59.103
X1.499 Y59.853
X1.819 Y60.597
X2.154 Y61.334
X2.503 Y62.065
X2.867 Y62.789
X3.245 Y63.505
X3.637 Y64.214
X4.043 Y64.914
X4.463 Y65.607
X4.896 Y66.291
X5.342 Y66.967
X5.802 Y67.634
X6.275 Y68.291
X6.76 Y68.94
X7.259 Y69.578
X7.769 Y70.206
X8.292 Y70.825
X8.827 Y71.433
X9.374 Y72.03
X9.933 Y72.617
X10.503 Y73.192
X11.084 Y73.756
X11.676 Y74.308
X12.279 Y74.849
X12.893 Y75.378
X13.516 Y75.894
X14.15 Y76.398
X14.159 Y76.405
X14.212 Y76.447 Z24.758
X14.262 Y76.486 Z24.78
X14.307 Y76.52 Z24.815
X14.344 Y76.55 Z24.863
X14.373 Y76.572 Z24.92
X14.39 Y76.585 Z24.983
X14.396 Y76.59 Z25.05
G0 Z55
X0.584 Y-1.953
G1 Z25.05 F333.3
X0.578 Y-1.948 Z24.983 F200
X0.562 Y-1.932 Z24.92
X0.537 Y-1.907 Z24.863
X0.503 Y-1.874 Z24.815
X0.462 Y-1.834 Z24.78
X0.417 Y-1.79 Z24.758
X0.369 Y-1.743 Z24.75
X0.012 Y-1.395
X-0.463 Y-0.925
X-0.932 Y-0.451
X-1.395 Y0.03
X-1.454 Y0.081
X-1.521 Y0.12
X-1.593 Y0.147
X-1.67 Y0.16
X-1.747 Y0.159
X-1.824 Y0.144
X-1.896 Y0.115
X-1.961 Y0.074
X-2.018 Y0.021
X-2.065 Y-0.041
X-2.099 Y-0.11
X-2.121 Y-0.185
X-2.128 Y-0.262
X-2.121 Y-0.339
X-2.1 Y-0.414
X-2.066 Y-0.484
X-2.02 Y-0.546
X-1.46 Y-1.175
X-1.414 Y-1.22
X-1.361 Y-1.257
X-1.303 Y-1.286
X-0.285 Y-1.699
X-0.242 Y-1.713
X-0.198 Y-1.724
X2.127 Y-2.128
X2.205 Y-2.134
X2.283 Y-2.126
X2.357 Y-2.104
X2.427 Y-2.069
X2.489 Y-2.021
X2.541 Y-1.963
X2.582 Y-1.897
X2.609 Y-1.824
X2.623 Y-1.747
Y-1.669
X2.609 Y-1.592
X2.581 Y-1.52
X2.54 Y-1.453
X2.487 Y-1.396
X1.814 Y-0.769
X1.151 Y-0.131
X0.499 Y0.518
X-0.142 Y1.178
X-0.771 Y1.849
X-1.39 Y2.53
X-1.448 Y2.584
X-1.515 Y2.626
X-1.588 Y2.655
X-1.665 Y2.67
X-1.744
X-1.822 Y2.656
X-1.896 Y2.628
X-1.963 Y2.586
X-2.021 Y2.533
X-2.069 Y2.47
X-2.104 Y2.399
X-2.125 Y2.323
X-2.132 Y2.244
X-2.124 Y2.166
X-2.102 Y2.09
X-2.066 Y2.02
X-2.018 Y1.957
X-0.171 Y-0.022
X-0.14 Y-0.052
X-0.106 Y-0.079
X2.2 Y-1.709
X2.256 Y-1.743
X2.317 Y-1.767
X2.381 Y-1.782
X4.715 Y-2.139
X4.793 Y-2.144
X4.871 Y-2.134
X4.946 Y-2.11
X5.015 Y-2.073
X5.076 Y-2.023
X5.126 Y-1.964
X5.166 Y-1.896
X5.191 Y-1.822
X5.203 Y-1.744
X5.201 Y-1.666
X5.184 Y-1.589
X5.153 Y-1.517
X5.109 Y-1.452
X5.055 Y-1.396
X4.36 Y-0.794
X3.677 Y-0.18
X3.004 Y0.446
X2.341 Y1.083
X1.69 Y1.731
X1.051 Y2.391
X0.423 Y3.061
X-0.194 Y3.743
X-0.798 Y4.435
X-1.391 Y5.137
X-1.447 Y5.193
X-1.513 Y5.238
X-1.585 Y5.27
X-1.663 Y5.287
X-1.742 Y5.29
X-1.821 Y5.278
X-1.896 Y5.252
X-1.965 Y5.212
X-2.025 Y5.16
X-2.074 Y5.098
X-2.111 Y5.027
X-2.134 Y4.951
X-2.143 Y4.872
X-2.137 Y4.793
X-2.116 Y4.716
X-2.081 Y4.645
X-2.033 Y4.581
X1.03 Y1.186
X1.085 Y1.134
X4.779 Y-1.719
X4.841 Y-1.759
X4.908 Y-1.787
X4.979 Y-1.804
X7.413 Y-2.148
X7.492 Y-2.151
X7.571 Y-2.14
X7.646 Y-2.115
X7.715 Y-2.076
X7.776 Y-2.025
X7.826 Y-1.963
X7.863 Y-1.894
X7.888 Y-1.818
X7.897 Y-1.739
X7.892 Y-1.66
X7.873 Y-1.583
X7.839 Y-1.512
X7.793 Y-1.447
X7.735 Y-1.393
X7.056 Y-0.85
X6.386 Y-0.296
X5.726 Y0.27
X5.075 Y0.847
X4.434 Y1.434
X3.803 Y2.033
X3.182 Y2.642
X2.572 Y3.261
X1.973 Y3.89
X1.384 Y4.53
X0.806 Y5.18
X0.239 Y5.839
X-0.317 Y6.508
